mamaa2001/cmc_project1/Project1/Python/cmc_project_pack/models/a2sw5_cycle_smoothed.csv
time,joint0,joint1,joint2,joint3,joint4,joint5,joint6,joint7
0.000000000000000000e+00,-5.488876116983655962e+00,-6.852903556875528324e+00,2.545678042688361842e-01,1.221009772793880543e+01,1.771257812908507745e+01,3.935966173247804178e+00,-1.166041706453115623e+01,-1.841171440869672793e+01
1.666666999999999932e-03,-5.226104694447867516e+00,-7.009999510187258309e+00,-2.724122691865760171e-01,1.198362559928917825e+01,1.831286668156715791e+01,4.687284206950666388e+00,-1.099201314864534851e+01,-1.817483414852387114e+01
3.333332999999999956e-03,-4.963041993980759514e+00,-7.166261385322851396e+00,-7.991289713018773222e-01,1.175631810287308454e+01,1.891206440962001878e+01,5.439852751983747403e+00,-1.032183277789139808e+01,-1.793689932746599425e+01
5.000000000000000104e-03,-4.699291691805028037e+00,-7.320827624306211590e+00,-1.325238481182721584e+00,1.152685045644232709e+01,1.950833160737150251e+01,6.195469099414363967e+00,-9.647166934569940011e+00,-1.769623897701385218e+01
6.666667000000000252e-03,-4.434426667498851948e+00,-7.472779806414831860e+00,-1.850385535254239322e+00,1.129340644323437992e+01,2.009892466302429170e+01,6.956266956178833283e+00,-8.964497840319063826e+00,-1.745056866359435688e+01
8.333333000000000060e-03,-4.167968663032471710e+00,-7.621268906621473604e+00,-2.374355815621472576e+00,1.105379765072789588e+01,2.068041180208163254e+01,7.724320577511395669e+00,-8.269884266355710167e+00,-1.719714785373626498e+01
1.000000000000000021e-02,-3.899092595961018759e+00,-7.765554173787107217e+00,-2.897058047675912018e+00,1.080558367830796307e+01,2.124910644332378951e+01,8.501294244886086204e+00,-7.559311330076067037e+00,-1.693293529708266476e+01
1.166666700000000036e-02,-3.627022711962631707e+00,-7.904936620525083946e+00,-3.418443966321833560e+00,1.054618591302701880e+01,2.180103183937100653e+01,9.288310830279826291e+00,-6.828866892892976104e+00,-1.665473560473216352e+01
1.333333299999999930e-02,-3.350836419131304922e+00,-8.038675002565454975e+00,-3.938383865545066698e+00,1.027297347774474723e+01,2.233198880879857740e+01,1.008599158540772045e+01,-6.074782971217075556e+00,-1.635931262702100497e+01
1.499999999999999944e-02,-3.069838319025858464e+00,-8.165904539700086673e+00,-4.456648509436842431e+00,9.983349196031054973e+00,2.283765722941245357e+01,1.089444639944169424e+01,-5.293492414710480709e+00,-1.604336876545530544e+01
1.666666699999999959e-02,-2.783782664027530274e+00,-8.285591453832712006e+00,-4.972937772208493534e+00,9.674842660871949107e+00,2.331365949428686335e+01,1.171325994124378234e+01,-4.481708074340026826e+00,-1.570365228546070036e+01
1.833333300000000027e-02,-2.492889626284073401e+00,-8.396597687110682884e+00,-5.486862890794949266e+00,9.345140591852011624e+00,2.375561551652607761e+01,1.254155382119542494e+01,-3.636366688029734284e+00,-1.533708955366675042e+01
2.000000000000000042e-02,-2.197501396569921717e+00,-8.497655259650461090e+00,-5.997903463319515183e+00,8.992165360766374960e+00,2.415918455210215754e+01,1.337793191833892514e+01,-2.754733512030985043e+00,-1.494074924140041283e+01
2.166666700000000056e-02,-1.897928000069070142e+00,-8.587366317540459093e+00,-6.505371747103628977e+00,8.614106913737138882e+00,2.452007609453235659e+01,1.422051174623311098e+01,-1.834513734986747746e+00,-1.451174413029477783e+01
2.333333300000000124e-02,-1.594392343693269654e+00,-8.664365709747050559e+00,-7.008418638578572057e+00,8.209456214131014562e+00,2.483407355011146223e+01,1.506692655575750095e+01,-8.737262215902825702e-01,-1.404724822954498364e+01
2.500000000000000139e-02,-1.287098308044811290e+00,-8.727376418942290215e+00,-7.506038257861225027e+00,7.777052492869534817e+00,2.509708293000440094e+01,1.591433496685772653e+01,1.293429715913343436e-01,-1.354448263988080825e+01
2.666666700000000154e-02,-9.762274270107477170e-01,-8.775228356600514701e+00,-7.997086302764753185e+00,7.316000598534342814e+00,2.530518663649161937e+01,1.675952399843047758e+01,1.176202566284778150e+00,-1.300067545182758622e+01
2.833333299999999874e-02,-6.619188225381749113e-01,-8.806926952917342177e+00,-8.480402541691042018e+00,6.825686194344145363e+00,2.545474068705570403e+01,1.759891148240586389e+01,2.267971945041398207e+00,-1.241298821008299313e+01
2.999999999999999889e-02,-3.443323948677773361e-01,-8.821695548439471679e+00,-8.954803045087839308e+00,6.305834003164403789e+00,2.554242778963973848e+01,1.842852293275023357e+01,3.405405047437726207e+00,-1.177847062800521449e+01
3.166666700000000251e-02,-2.377974690427897553e-02,-8.818966927412665413e+00,-9.419061042674202966e+00,5.756485573658073562e+00,2.556526821318216136e+01,1.924405974237112105e+01,4.589011968832593880e+00,-1.109416713572188762e+01
3.333333299999999971e-02,2.991591103606066615e-01,-8.798360948176451757e+00,-9.872018140227901029e+00,5.177946459516958200e+00,2.552075010823293510e+01,2.004101018042077698e+01,5.819090910958577112e+00,-1.035708171536820288e+01
3.500000000000000333e-02,6.236403105229219035e-01,-8.759667510283881242e+00,-1.031257383191521448e+01,4.570769031969846630e+00,2.540683023616762171e+01,2.081464211087964955e+01,7.095616555178243523e+00,-9.564004714629273707e+00
3.666666700000000001e-02,9.486353566041222374e-01,-8.702835382015752685e+00,-1.073966336116592935e+01,3.935747360200922085e+00,2.522191630368637760e+01,2.155999213104358958e+01,8.418093605739780827e+00,-8.711568270363910571e+00
3.833333299999999721e-02,1.272954350268521884e+00,-8.627954649518757790e+00,-1.115227489649767101e+01,3.273924288328975418e+00,2.496488134528900460e+01,2.227186957790416599e+01,9.785502164520346824e+00,-7.796239588691907585e+00
4.000000000000000083e-02,1.595371547239992083e+00,-8.535230483149465641e+00,-1.154941675463422612e+01,2.586547411753683079e+00,2.463510536998871814e+01,2.294496964010921758e+01,1.119629493786237617e+01,-6.814475909424499989e+00
4.166666699999999751e-02,1.914717855596486551e+00,-8.424973812311900900e+00,-1.193009568550730570e+01,1.875099320276802484e+00,2.423250331397952451e+01,2.357391494046893499e+01,1.264830565507154247e+01,-5.762755668227565131e+00
4.333333300000000166e-02,2.229830748075034563e+00,-8.297593501456878684e+00,-1.229335085411743300e+01,1.141299020354506588e+00,2.375746333256209653e+01,2.415332916497191462e+01,1.413880738576448337e+01,-4.637668394072234079e+00
4.499999999999999833e-02,2.539519766251344013e+00,-8.153580547853028548e+00,-1.263822726416109177e+01,3.870025666229509609e-01,2.321080403527999891e+01,2.467795626802726972e+01,1.566450078533361179e+01,-3.435949807574736337e+00
4.666666700000000195e-02,2.842733522128398249e+00,-7.993521167847220887e+00,-1.296377526828450399e+01,-3.858285151808489299e-01,2.259381983559051932e+01,2.514273343432165220e+01,1.722137675208493945e+01,-2.154698401787586981e+00
4.833333299999999916e-02,3.138620304777832715e+00,-7.818115039169591718e+00,-1.326909671347606867e+01,-1.175145387857691626e+00,2.190831247171970730e+01,2.554286008283770570e+01,1.880463213004701828e+01,-7.914885228587904553e-01
5.000000000000000278e-02,3.426563618682595624e+00,-7.628149320660921440e+00,-1.355332536002324773e+01,-1.978816634500034644e+00,2.115652105175552222e+01,2.587385459278990041e+01,2.040872510202575896e+01,6.555083802924051017e-01
5.166666699999999945e-02,3.706158343900492369e+00,-7.424433058960055121e+00,-1.381558664029893357e+01,-2.794704802533802379e+00,2.034111702805234501e+01,2.613168633922886741e+01,2.202722079726593307e+01,2.187318842674414121e+00
5.333333299999999666e-02,3.977204120411250265e+00,-7.207789368280469233e+00,-1.405496342920535291e+01,-3.620734941557405495e+00,1.946509615737014443e+01,2.631298117541155435e+01,2.365288553391691551e+01,3.803986083337581370e+00
5.500000000000000028e-02,4.239620869911384204e+00,-6.979079805507875101e+00,-1.427058558354351980e+01,-4.454839375007465740e+00,1.853179263500330975e+01,2.641509592285224528e+01,2.527769662877139112e+01,5.504365676372247052e+00
5.666666699999999696e-02,4.493371001240946683e+00,-6.739142171668204284e+00,-1.446165211173529563e+01,-5.295000478644652731e+00,1.754476788861072123e+01,2.643620455285748250e+01,2.689294551795100219e+01,7.285931886496363141e+00
5.833333300000000110e-02,4.738472583230672441e+00,-6.488788706808507278e+00,-1.462748064914645418e+01,-6.139193703519715939e+00,1.650776617155832682e+01,2.637526339877412696e+01,2.848928986143360476e+01,9.144806101214770777e+00
5.999999999999999778e-02,4.974937030508478131e+00,-6.228811850949102613e+00,-1.476748262978809656e+01,-6.985389042165581763e+00,1.542461636110094503e+01,2.623195705048907911e+01,3.005682581132058928e+01,1.107564865390284581e+01
6.166666700000000140e-02,5.202681384527267028e+00,-5.959893632118510531e+00,-1.488113160179687355e+01,-7.831596408279793309e+00,1.429915957537539128e+01,2.600667958644978128e+01,3.158528951561782705e+01,1.307149591569045199e+01
6.333333300000000554e-02,5.421493498833036107e+00,-5.682634788232453715e+00,-1.496792972034798908e+01,-8.675871222910950920e+00,1.313525198819931106e+01,2.570055063574945109e+01,3.306417659074843840e+01,1.512383197463138274e+01
6.500000000000000222e-02,5.630948597870407468e+00,-5.397612649673268592e+00,-1.502739290331889244e+01,-9.516230386179101330e+00,1.193668199865165747e+01,2.531543127361054246e+01,3.448286317978769944e+01,1.722249275098803878e+01
6.666666699999999890e-02,5.830311302894147119e+00,-5.105402302942853687e+00,-1.505905198384104793e+01,-1.035064579937128215e+01,1.070709055376751984e+01,2.485387393604818840e+01,3.583087636376954777e+01,1.935573697836375118e+01
6.833333299999999610e-02,6.018443223411457765e+00,-4.806520060331523680e+00,-1.506246366863853048e+01,-1.117704409689739542e+01,9.450052934274980387e+00,2.431906102602664532e+01,3.709794077897802111e+01,2.151024071039159935e+01
7.000000000000000666e-02,6.193784677606004152e+00,-4.501382479242586498e+00,-1.503719863894384012e+01,-1.199324476285753605e+01,8.169030984691241670e+00,2.371471262454393880e+01,3.827423219030992385e+01,2.367123997764534238e+01
7.166666700000000334e-02,6.354549263220143906e+00,-4.190330678045245172e+00,-1.498284000152573192e+01,-1.279699318726747137e+01,6.867295485824400636e+00,2.304492731907393122e+01,3.935060132194763582e+01,2.582289602437199250e+01
7.333333300000000055e-02,6.498847117743911994e+00,-3.873678779318953325e+00,-1.489897350576888790e+01,-1.358594033731407968e+01,5.547924116603988764e+00,2.231412906526530193e+01,4.031873021056384943e+01,2.794842960529401310e+01
7.499999999999999722e-02,6.625136146755009392e+00,-3.551719681298807441e+00,-1.478518453293500912e+01,-1.435760459080779761e+01,4.213827235120470860e+00,2.152697862390461836e+01,4.117129121048863283e+01,3.003049768248169826e+01
7.666666699999999390e-02,6.732285230262923470e+00,-3.224688838150203907e+00,-1.464106920769605757e+01,-1.510942810124467606e+01,2.867798123818546596e+00,2.068825980935465481e+01,4.190216847901423591e+01,3.205145104500711994e+01
7.833333300000000499e-02,6.819508320876130014e+00,-2.892793414990582068e+00,-1.446625888644883062e+01,-1.583877121529428678e+01,1.512478320380851171e+00,1.980272603611529192e+01,4.250670976953448132e+01,3.399377557964130148e+01
8.000000000000000167e-02,6.886333184160998933e+00,-2.556185995631001351e+00,-1.426044678091024309e+01,-1.654288269581201831e+01,1.504079525090717406e-01,1.887497168060980357e+01,4.298168420555900582e+01,3.584053743333024045e+01
8.166666699999999834e-02,6.932577520690063722e+00,-2.214963506319295838e+00,-1.402338020061882418e+01,-1.721891869883117820e+01,-1.215954407314348229e+00,1.790934890744768992e+01,4.332509164080988739e+01,3.757588597244556183e+01
8.333333299999999555e-02,6.958324519093654459e+00,-1.869211604290379469e+00,-1.375484242300476367e+01,-1.786400409503370668e+01,-2.584233290281448880e+00,1.690991974163731015e+01,4.353621689053832000e+01,3.918536588901299211e+01
8.500000000000000611e-02,6.963905198077463332e+00,-1.519039039190458462e+00,-1.345464926490082647e+01,-1.847525745187740398e+01,-3.952172652561419142e+00,1.588037744416704022e+01,4.361548213520598694e+01,4.065617106818084636e+01
8.666666700000000279e-02,6.949889504100260851e+00,-1.164617515427840422e+00,-1.312269138014760905e+01,-1.904976146701067918e+01,-5.317554216700529857e+00,1.482403939318620800e+01,4.356427450517608690e+01,4.197747216762277844e+01
8.833333299999999999e-02,6.917088496138791953e+00,-8.060801088552609350e-01,-1.275899929600748806e+01,-1.958462849896676161e+01,-6.678057093845922054e+00,1.374386742849917376e+01,4.338483612774980003e+01,4.314056968642434242e+01
8.999999999999999667e-02,6.866563795495205014e+00,-4.435283316000556697e-01,-1.236373350112419978e+01,-2.007708254127100744e+01,-8.031278099900298173e+00,1.264239350076539026e+01,4.308020264100048990e+01,4.413916025353408656e+01
9.166666699999999335e-02,6.799646575016219607e+00,-7.703048159877093348e-02,-1.193724102070325266e+01,-2.052447777717986099e+01,-9.374695795991209835e+00,1.152182853009738039e+01,4.265415610509636934e+01,4.496943592318572058e+01
9.333333300000000443e-02,6.717911952497110484e+00,2.933371773094345936e-01,-1.148005974979693988e+01,-2.092429444329358645e+01,-1.070566948455747180e+01,1.038412825638868320e+01,4.211120336913420203e+01,4.562985988334075671e+01
9.500000000000000111e-02,6.622964965139798821e+00,6.674879294427894516e-01,-1.099288437601010848e+01,-2.127410645477110407e+01,-1.202144398015822979e+01,9.231012602291842839e+00,4.145650530054875560e+01,4.612101764090016331e+01
9.666666699999999779e-02,6.516312736323871313e+00,1.045253615724142549e+00,-1.047654204325190896e+01,-2.157160147328556832e+01,-1.331912118042576232e+01,8.063994887500081532e+00,4.069559467838907096e+01,4.644532708593309422e+01
9.833333299999999499e-02,6.399462072205490237e+00,1.426441375594142524e+00,-9.931991740783391975e+00,-2.181466263034195663e+01,-1.459571063183583206e+01,6.884338340583316729e+00,3.983430759842138968e+01,4.660676636964414854e+01
1.000000000000000056e-01,6.273819401850609268e+00,1.810858452149493036e+00,-9.360330847040186697e+00,-2.200146663057696372e+01,-1.584804844149583047e+01,5.693171368769637475e+00,3.887862512381266811e+01,4.661067710993363278e+01
1.016666670000000022e-01,6.140548883276458092e+00,2.198261097973894795e+00,-8.762872065081126038e+00,-2.213051783769203240e+01,-1.707262299188681709e+01,4.491581651716778367e+00,3.783434231797259883e+01,4.646360871675939563e+01
1.033333329999999994e-01,6.000560778118938288e+00,2.588259153784532085e+00,-8.141128187406236449e+00,-2.220063433436471101e+01,-1.826561196125670605e+01,3.280677997068301988e+00,3.670691318006554837e+01,4.617305223471822728e+01
1.049999999999999961e-01,5.854554849734577182e+00,2.980335289965915013e+00,-7.496775284762025038e+00,-2.221090573719845906e+01,-1.942307557481619540e+01,2.061641910129154098e+00,3.550156829703333017e+01,4.574702196557155531e+01
1.066666670000000067e-01,5.703049636806703404e+00,3.373846661655719448e+00,-6.831626572488399773e+00,-2.216069143418060605e+01,-2.054096756248264555e+01,8.357974716335846432e-01,3.422327052226037836e+01,4.519370536291524587e+01
1.083333330000000039e-01,5.546494655077782276e+00,3.768061175198994306e+00,-6.147632989797584990e+00,-2.204961360127494174e+01,-2.161514284476802317e+01,-3.953648250454249169e-01,3.287670434142326314e+01,4.452124754769980797e+01
1.100000000000000006e-01,5.385359846951281781e+00,4.162126027797063088e+00,-5.446854993185083593e+00,-2.187756685308642801e+01,-2.264151650246138558e+01,-1.630472670957797021e+00,3.146592429621582099e+01,4.373769872345204135e+01
1.116666669999999972e-01,5.220168222663797764e+00,4.555067764945397002e+00,-4.731429387932023722e+00,-2.164475681255349926e+01,-2.361595777238735039e+01,-2.868343825908478362e+00,2.999451396469219233e+01,4.285071960699090710e+01
1.133333329999999944e-01,5.051356756748322852e+00,4.945814493819405300e+00,-4.003573642736888871e+00,-2.135175661888208865e+01,-2.453428813937329878e+01,-4.107835701038216492e+00,2.846560020812551528e+01,4.186735527203263274e+01
1.150000000000000050e-01,4.879123315877528455e+00,5.333240547532779097e+00,-3.265474115105729602e+00,-2.099955479966405747e+01,-2.539244307426292124e+01,-5.347480385772556133e+00,2.688180299184343980e+01,4.079396594705679036e+01
1.166666670000000017e-01,4.703460462064316339e+00,5.716211169571843165e+00,-2.519250311465642600e+00,-2.058959904396430929e+01,-2.618645967889681003e+01,-6.585381392409860091e+00,2.524524070634427986e+01,3.963624864838959638e+01
1.183333329999999989e-01,4.524203217677728261e+00,6.093578112331393015e+00,-1.766938313691050144e+00,-2.012372901890440957e+01,-2.691260982518115696e+01,-7.819192963919418204e+00,2.355774755823697575e+01,3.839930849125485679e+01
1.199999999999999956e-01,4.340996283836661362e+00,6.464151662773400808e+00,-1.010527880430778680e+00,-1.960411888413063508e+01,-2.756751158723520234e+01,-9.046120712257943453e+00,2.182111812976570064e+01,3.708752695739196525e+01
1.216666670000000061e-01,4.153375876790283527e+00,6.826694469743676663e+00,-2.520330119590087903e-01,-1.903323513356653152e+01,-2.814814716362478464e+01,-1.026293504198448758e+01,2.003719759919252397e+01,3.570474608830034668e+01
1.233333330000000033e-01,3.960858352363342938e+00,7.179890649648167589e+00,5.064852047853317663e-01,-1.841384665624782713e+01,-2.865187390224534525e+01,-1.146595322624728119e+01,1.820802855547747612e+01,3.425434373264305776e+01
1.250000000000000000e-01,3.763012232125191758e+00,7.522429258836697663e+00,1.262978712499862377e+00,-1.774903419597353604e+01,-2.907647881066741746e+01,-1.265107371710286621e+01,1.633599583720967985e+01,3.273940641964379239e+01
1.266666670000000106e-01,3.559570734487247812e+00,7.853111664537069991e+00,2.015371853970948202e+00,-1.704211716419527889e+01,-2.942024336081989233e+01,-1.381385724715529584e+01,1.442385944181795310e+01,3.116282158348028020e+01
1.283333329999999939e-01,3.350527140311744478e+00,8.170807262328061427e+00,2.761590154366441840e+00,-1.629666179812114279e+01,-2.968199471746948248e+01,-1.494949935140174624e+01,1.247482500042482911e+01,2.952733091502346596e+01
1.300000000000000044e-01,3.136130579328662016e+00,8.474407655174053033e+00,3.499550795400334202e+00,-1.551640411920596740e+01,-2.986111770629212359e+01,-1.605285308603249916e+01,1.049258514828999012e+01,2.783544258166194751e+01
1.316666669999999872e-01,2.916660484555373856e+00,8.762810386246094652e+00,4.227183726688791054e+00,-1.470519173070909602e+01,-2.995754686737362960e+01,-1.711857493570538580e+01,8.481323068512347518e+00,2.608967394599727641e+01
1.333333329999999983e-01,2.692405226814256647e+00,9.034930300786674806e+00,4.942482511522542588e+00,-1.386695894405636764e+01,-2.997173653762218493e+01,-1.814122507133675910e+01,6.445718540898463189e+00,2.429280680779590895e+01
1.350000000000000089e-01,2.463721793189923570e+00,9.289633826797338401e+00,5.643524023328560624e+00,-1.300564867253144108e+01,-2.990465456744489359e+01,-1.911540885990272187e+01,4.390904370712344296e+00,2.244797038887834262e+01
1.366666669999999917e-01,2.231007877740991852e+00,9.525740631252247681e+00,6.328442863991638134e+00,-1.212513226813329936e+01,-2.975781421825047346e+01,-2.003589566168569291e+01,2.322457000746183997e+00,2.055863153955833411e+01
1.383333330000000028e-01,1.994772246733806931e+00,9.742097452623196929e+00,6.995482771541927214e+00,-1.122915694393975627e+01,-2.953332360494909281e+01,-2.089773042774700684e+01,2.464012974847480386e-01,1.862864540757065512e+01
1.400000000000000133e-01,1.755650524149966696e+00,9.937649114936066397e+00,7.642961170314867658e+00,-1.032128295188723399e+01,-2.923386773825478713e+01,-2.169636490651432936e+01,-1.830801884815381531e+00,1.666222101719012016e+01
1.416666669999999961e-01,1.514123800231406580e+00,1.011141567624249760e+01,8.269218493254308910e+00,-9.404907985729691333e+00,-2.886261487054934705e+01,-2.242773208859030021e+01,-3.902223711362750258e+00,1.466401513048159266e+01
1.433333330000000072e-01,1.270463699341529917e+00,1.026248514839580217e+01,8.872592814145846773e+00,-8.483237127388141730e+00,-2.842312055363320766e+01,-2.308838880766283452e+01,-5.960466554704645148e+00,1.263921257500272510e+01
1.449999999999999900e-01,1.024829052372542959e+00,1.038998220104018344e+01,9.451451220315783885e+00,-7.559216611352001181e+00,-2.791926932974760334e+01,-2.367564129118821725e+01,-7.997667866082720955e+00,1.059352492311316851e+01
1.466666670000000006e-01,7.773617720161143385e-01,1.049307077994489745e+01,1.000424540039880306e+01,-6.635554533183951165e+00,-2.735524969803021733e+01,-2.418753635920909062e+01,-1.000562714761400862e+01,8.533219720776363815e+00
1.483333330000000116e-01,5.282167030079730763e-01,1.057101341050926280e+01,1.052957510571861732e+01,-5.714779534340888922e+00,-2.673555680594180117e+01,-2.462283688902352097e+01,-1.197587000702333881e+01,6.465240488368104721e+00
1.499999999999999944e-01,2.776492330921786489e-01,1.062319466735856288e+01,1.102615681395823799e+01,-4.799259420753895000e+00,-2.606488296972911556e+01,-2.498104964312812371e+01,-1.389972898510707466e+01,4.397121066934015943e+00
1.516666670000000050e-01,2.608065953089760969e-02,1.064911502232201634e+01,1.149281013861852507e+01,-3.891220763627581292e+00,-2.534800709588370538e+01,-2.526238391784071524e+01,-1.576860620998154872e+01,2.336974542675153366e+00
1.533333329999999883e-01,-2.258870758852571936e-01,1.064840098760184084e+01,1.192845454943732975e+01,-2.992697718380320726e+00,-2.458969752489409899e+01,-2.546774939341504407e+01,-1.757408655263101593e+01,2.933881344838744631e-01
1.549999999999999989e-01,-4.774337731423333731e-01,1.062081131379895638e+01,1.233220073136373074e+01,-2.105505483937178290e+00,-2.379473849206690872e+01,-2.559869931209286875e+01,-1.930809572593971168e+01,-1.724804018260195138e+00
1.566666670000000094e-01,-7.274575956149097467e-01,1.056623389572236960e+01,1.270337577176752575e+01,-1.231242358338900722e+00,-2.296785730044525309e+01,-2.565738176928532965e+01,-2.096301731217271680e+01,-3.708435228460481348e+00
1.583333329999999928e-01,-9.746840849825280095e-01,1.048468940599335575e+01,1.304149540667021334e+01,-3.712812428603795567e-01,-2.211358821656031992e+01,-2.564652671225872282e+01,-2.253194251952808358e+01,-5.648333589162533031e+00
1.600000000000000033e-01,-1.217944184527590901e+00,1.037635175456613190e+01,1.334631205380500063e+01,4.732414655179663088e-01,-2.123624127641506476e+01,-2.556944070946806491e+01,-2.400883879529204279e+01,-7.535625907246217281e+00
1.616666669999999861e-01,-1.456596229853676316e+00,1.024153592298493720e+01,1.361776082009956212e+01,1.301385941575701199e+00,-2.033988993412134505e+01,-2.542992949326739094e+01,-2.538858471767105485e+01,-9.361900193478701837e+00
1.633333329999999972e-01,-1.690535981871059690e+00,1.008073549475792063e+01,1.385598290628949769e+01,2.112397783090482317e+00,-1.942834719189574244e+01,-2.523219704722539092e+01,-2.666702403557457757e+01,-1.111938268080453440e+01
1.650000000000000078e-01,-1.920104553726404983e+00,9.894652724279117351e+00,1.406133100695705984e+01,2.905676696325527608e+00,-1.850514126591305697e+01,-2.498070805798888117e+01,-2.784105960757808518e+01,-1.280110754572729093e+01
1.666666669999999906e-01,-2.145980675480452682e+00,9.684232880311132163e+00,1.423431634603133844e+01,3.680663042351183023e+00,-1.757346475939017338e+01,-2.467999226170705640e+01,-2.890880356543409135e+01,-1.440088571325357414e+01
1.683333330000000017e-01,-2.369070709664852448e+00,9.450609656773982792e+00,1.437557471785696883e+01,4.436874765103535623e+00,-1.663612129083067259e+01,-2.433454732328078762e+01,-2.986958227402123356e+01,-1.591334987936778589e+01
1.700000000000000122e-01,-2.590400319735912227e+00,9.195022267269607141e+00,1.448582939090821320e+01,5.173919879958512880e+00,-1.569550996727705083e+01,-2.394878528399216577e+01,-3.072383239766736551e+01,-1.733410310811002120e+01
1.716666669999999950e-01,-2.811006225116294832e+00,8.918780298840811582e+00,1.456586599799461546e+01,5.891448990876437364e+00,-1.475362332418490574e+01,-2.352691221979292280e+01,-3.147307987188122169e+01,-1.865980700867816111e+01
1.733333330000000061e-01,-3.031812037447116026e+00,8.623252120980739122e+00,1.461650978196741768e+01,6.589182929678656819e+00,-1.381203743445418475e+01,-2.307288303263571194e+01,-3.211987432055171610e+01,-1.988814290703280463e+01
1.749999999999999889e-01,-3.253450615943650703e+00,8.309769046316343832e+00,1.463860474379201371e+01,7.266893817802985822e+00,-1.287201351682441341e+01,-2.259036954904095751e+01,-3.266757658319742319e+01,-2.101784492483544398e+01
1.766666669999999995e-01,-3.476138979309655319e+00,7.979581543525138265e+00,1.463301502422369360e+01,7.924396201489689595e+00,-1.193451176608356334e+01,-2.208265015168413470e+01,-3.312018155529599994e+01,-2.204877224545512604e+01
1.783333330000000105e-01,-3.699533885066931482e+00,7.633901821480113092e+00,1.460062397402945322e+01,8.561514594358635932e+00,-1.100021266662733233e+01,-2.155258135115867901e+01,-3.348215236376866955e+01,-2.298192427557744821e+01
1.799999999999999933e-01,-3.922510760228194115e+00,7.273881785232322095e+00,1.454228398774974984e+01,9.178093475364711651e+00,-1.006954367036122733e+01,-2.100258979566201134e+01,-3.375828476139656686e+01,-2.381935677445601129e+01
1.816666670000000039e-01,-4.143212655214531637e+00,6.900687469708066679e+00,1.445881885655644439e+01,9.773987205292574032e+00,-9.142768276089565660e+00,-2.043467551047547914e+01,-3.395359375061869400e+01,-2.456418586600251430e+01
1.833333329999999872e-01,-4.359313405581277223e+00,6.515487072985848727e+00,1.435105952647598393e+01,1.034902308327266951e+01,-8.220083507838179315e+00,-1.985043564586303688e+01,-3.407316577588578355e+01,-2.522040478145108366e+01
1.849999999999999978e-01,-4.568596370740491963e+00,6.119492192671907027e+00,1.421985019401525285e+01,1.090296963570370714e+01,-7.301713796842712156e+00,-1.925111950092513879e+01,-3.412202341592178101e+01,-2.579264442571830784e+01
1.866666670000000083e-01,-4.769010092288342051e+00,5.713911884961306420e+00,1.406604383536411973e+01,1.143551150029288266e+01,-6.387941471111926894e+00,-1.863771426605948989e+01,-3.410506527496827545e+01,-2.628592378979237409e+01
1.883333329999999917e-01,-4.958582192072212180e+00,5.300029724705542122e+00,1.389051109607063417e+01,1.194620878263247477e+01,-5.479117809583321730e+00,-1.801100199203944996e+01,-3.402700785623046187e+01,-2.670543222191046695e+01
1.900000000000000022e-01,-5.135413792608566119e+00,4.879175480873278126e+00,1.369415997504718341e+01,1.243449900477123649e+01,-4.575713607844853925e+00,-1.737161207977938204e+01,-3.389223248157903612e+01,-2.705635288883016543e+01
1.916666670000000128e-01,-5.297783365411538270e+00,4.452783729504368182e+00,1.347789634220540478e+01,1.289971259707225215e+01,-3.678292840040178202e+00,-1.672008322187217644e+01,-3.370478626684952417e+01,-2.734373484276591881e+01
1.933333329999999961e-01,-5.444284693252066099e+00,4.022335002353141675e+00,1.324257697107707976e+01,1.334110772861955851e+01,-2.787519544433424645e+00,-1.605691093988193785e+01,-3.346830801446924397e+01,-2.757238278446632052e+01
1.950000000000000067e-01,-5.573805559993394887e+00,3.589260753034698048e+00,1.298903912167644847e+01,1.375792604509141448e+01,-1.904163275365589714e+00,-1.538262561017257823e+01,-3.318600755685447723e+01,-2.774677439841796556e+01
1.966666669999999895e-01,-5.685485897396995725e+00,3.155030067169746655e+00,1.271810219065755021e+01,1.414939493571612772e+01,-1.029099228961018131e+00,-1.469782128093637574e+01,-3.286071875675136766e+01,-2.787101681977990353e+01
1.983333330000000005e-01,-5.778633787804908550e+00,2.721158083125361227e+00,1.243054763511434935e+01,1.451473943175519743e+01,-1.632714930844160195e-01,-1.400313933121801746e+01,-3.249497475909982569e+01,-2.794881664087617423e+01
2.000000000000000111e-01,-5.852700347285367144e+00,2.289124289539785195e+00,1.212714210646744739e+01,1.485319730995719034e+01,6.922897389071727137e-01,-1.329925954617030293e+01,-3.209102496132034332e+01,-2.798347315648498324e+01
2.016666669999999939e-01,-5.907232226366979866e+00,1.860388908993181545e+00,1.180865714491643992e+01,1.516399456661068079e+01,1.536489952080307031e+00,-1.258689406383827780e+01,-3.165093758280032432e+01,-2.797790743639233568e+01
2.033333330000000050e-01,-5.941802997858295576e+00,1.436445814860194847e+00,1.147589910446355077e+01,1.544640028630193562e+01,2.368145449711698269e+00,-1.186686866709552746e+01,-3.117661274418208706e+01,-2.793469735062757309e+01
2.049999999999999878e-01,-5.956081979433244911e+00,1.018610079677186420e+00,1.112968853049314433e+01,1.569974834703590361e+01,3.185996954763520073e+00,-1.114013306535838055e+01,-3.066977211116719459e+01,-2.785612108922039454e+01
2.066666669999999983e-01,-5.950094663420763652e+00,6.080425523198550453e-01,1.077087287725657561e+01,1.592341495388422778e+01,3.988762821285077642e+00,-1.040772145914347746e+01,-3.013203740528591368e+01,-2.774419705643552803e+01
2.083333330000000094e-01,-5.924293227640637483e+00,2.057663817308241216e-01,1.040032737129141083e+01,1.611687513280071826e+01,4.775135888984301857e+00,-9.670781658722418683e+00,-2.956501938220996095e+01,-2.760073403499024636e+01
2.099999999999999922e-01,-5.879595518528492271e+00,-1.873726030863352154e-01,1.001893295376392068e+01,1.627971279064015775e+01,5.543778518812778167e+00,-8.930556771725013832e+00,-2.897027572897524905e+01,-2.742742113281559568e+01
2.116666670000000028e-01,-5.817352507811695439e+00,-5.706605299270639531e-01,9.627630745396389855e+00,1.641161253199740955e+01,6.293339295626356744e+00,-8.188354830432929887e+00,-2.834934141433174304e+01,-2.722591012458983428e+01
2.133333330000000139e-01,-5.739268766993102844e+00,-9.434173152749846247e-01,9.227438471303209155e+00,1.651243390659699273e+01,7.022485180888091705e+00,-7.445598534955837344e+00,-2.770380252100456886e+01,-2.699780882900519074e+01
2.149999999999999967e-01,-5.647179212458244280e+00,-1.304948258836704955e+00,8.819463268155427471e+00,1.658221074594931821e+01,7.729964530891225927e+00,-6.703810184033990538e+00,-2.703529910881418630e+01,-2.674470730796351603e+01
2.166666670000000072e-01,-5.543388671314700922e+00,-1.654678407120742545e+00,8.404868973459999282e+00,1.662114021481221471e+01,8.414616640756243271e+00,-5.964611187087845323e+00,-2.634551104739257710e+01,-2.646826641400112123e+01
2.183333329999999906e-01,-5.431031452603674481e+00,-1.992271969706437051e+00,7.984764015400518389e+00,1.662958042802326020e+01,9.075467127706662751e+00,-5.229679864721943794e+00,-2.563619761751122184e+01,-2.617023072190502120e+01
2.200000000000000011e-01,-5.314032284428236608e+00,-2.317566193148203890e+00,7.560154575260902732e+00,1.660804862854147146e+01,9.711819820370816814e+00,-4.500760224651838115e+00,-2.490928340223657145e+01,-2.585235774790286101e+01
2.216666670000000117e-01,-5.196447222909596597e+00,-2.630519648643356412e+00,7.132059403949476462e+00,1.655723047280330107e+01,1.032323700730369964e+01,-3.779664633037094656e+00,-2.416685539022300233e+01,-2.551643587741973818e+01
2.233333329999999950e-01,-5.081815546843035492e+00,-2.931275051338846804e+00,6.701483124273061698e+00,1.647800026919147598e+01,1.090958103835169268e+01,-3.068244557713676102e+00,-2.341117930024291738e+01,-2.516421167915999035e+01
2.250000000000000056e-01,-4.972998324247232205e+00,-3.220132798368257721e+00,6.269421485795984239e+00,1.637144038635649679e+01,1.147101247832532955e+01,-2.368359180924450857e+00,-2.264464671770370430e+01,-2.479739163636629584e+01
2.266666669999999884e-01,-4.872039117876190595e+00,-3.497510211530511892e+00,5.836788349873857307e+00,1.623886217640906438e+01,1.200804454759529882e+01,-1.681813266288393560e+00,-2.186973130151560341e+01,-2.441776580709136013e+01
2.283333329999999994e-01,-4.780393652426003115e+00,-3.763889056692543811e+00,5.404451042235042912e+00,1.608179968133057969e+01,1.252153272486830993e+01,-1.010339919735892877e+00,-2.108901248710921905e+01,-2.402722307722850559e+01
2.300000000000000100e-01,-4.698981981493425941e+00,-4.019774992942094727e+00,4.973171945822837614e+00,1.590192062943104112e+01,1.301276323851511485e+01,-3.555283646145003806e-01,-2.030513704162592248e+01,-2.362768510332475458e+01
2.316666669999999928e-01,-4.628047166778330279e+00,-4.265614299950012622e+00,4.543587553652334243e+00,1.570104857903965190e+01,1.348340590313357445e+01,2.811809668788741723e-01,-1.952078456459009104e+01,-2.322114061534098894e+01
2.333333330000000039e-01,-4.567188674766385681e+00,-4.501807562554417608e+00,4.116227924106765634e+00,1.548119006792859942e+01,1.393548853747067895e+01,8.985287608927351455e-01,-1.873862909222046369e+01,-2.280976102316787291e+01
2.349999999999999867e-01,-4.515569106059468041e+00,-4.728905233967289234e+00,3.691484547163172092e+00,1.524453936771874929e+01,1.437139524085771214e+01,1.495499093492792309e+00,-1.796130812857618508e+01,-2.239580659708006038e+01
2.366666669999999972e-01,-4.471998460975338929e+00,-4.947600735816658712e+00,3.269597491084069496e+00,1.499347578698570693e+01,1.479377900437459381e+01,2.071394852780429119e+00,-1.719132976781022037e+01,-2.198156902439616545e+01
2.383333330000000083e-01,-4.435023995197392210e+00,-5.158666082079031767e+00,2.850657999919250507e+00,1.473048677340104362e+01,1.520553962834850381e+01,2.625961627218326377e+00,-1.643098196971218528e+01,-2.156936457082938929e+01
2.399999999999999911e-01,-4.402995930348089004e+00,-5.362995665638693232e+00,2.434580889910751278e+00,1.445806765728057641e+01,1.560982862062512311e+01,3.159483410724325925e+00,-1.568229741519697384e+01,-2.116150014553326741e+01
2.416666670000000017e-01,-4.374080748373901706e+00,-5.561534222697040342e+00,2.021040100558707309e+00,1.417869268244876757e+01,1.601002176433148350e+01,3.672830260192428753e+00,-1.494704432234721736e+01,-2.076021253672013600e+01
2.433333330000000128e-01,-4.346246376116294385e+00,-5.755218769297593795e+00,1.609408996100056610e+00,1.389475276732996001e+01,1.640964399916786931e+01,4.167563157880818991e+00,-1.422661852845215513e+01,-2.036759555268519861e+01
2.449999999999999956e-01,-4.317297232186763978e+00,-5.945034667678955387e+00,1.198748339166809895e+00,1.360854258699836983e+01,1.681224087068128625e+01,4.646007035534585938e+00,-1.352202760145946314e+01,-1.998554177756284744e+01
2.466666670000000061e-01,-4.284908627707050499e+00,-6.131947590055949249e+00,7.878181052150293739e-01,1.332222611798588296e+01,1.722117943619933911e+01,5.111359433139826436e+00,-1.283380161728427105e+01,-1.961569045748189311e+01
2.483333329999999894e-01,-4.246703371273777172e+00,-6.316797682517908186e+00,3.751109539646952373e-01,1.303765495780443828e+01,1.763944915491771326e+01,5.567744179082517952e+00,-1.216187607631892753e+01,-1.925935756437468882e+01
2.500000000000000000e-01,-4.200294623182548648e+00,-6.500195050728606816e+00,-4.096781223175582909e-02,1.275624779597930392e+01,1.806944070673092995e+01,6.020012817282595741e+00,-1.150540481642949331e+01,-1.891737011187085571e+01
2.516666670000000106e-01,-4.143394204789514035e+00,-6.682392967511178838e+00,-4.618795608784667106e-01,1.247887912302762103e+01,1.851271207098846361e+01,6.473484082364927339e+00,-1.086249809072760542e+01,-1.858976250544030151e+01
2.533333340000000211e-01,-4.073987331427971093e+00,-6.863082963494520072e+00,-8.887325637718536120e-01,1.220573264159400040e+01,1.896975174285221399e+01,6.933687980301781906e+00,-1.023007789687360081e+01,-1.827557287426039778e+01
2.550000000000000044e-01,-3.990411091779618946e+00,-7.041368413961162531e+00,-1.322125655739398109e+00,1.193618672288311444e+01,1.943979573954353057e+01,7.406107634391817740e+00,-9.603918931624022548e+00,-1.797285795289357324e+01
2.566666670000000150e-01,-3.891387868317478294e+00,-7.216254815709540971e+00,-1.762250506423194585e+00,1.166890478801082942e+01,1.992086875607181895e+01,7.895919722816275410e+00,-8.978952571919295522e+00,-1.767885596831937889e+01
2.583333340000000256e-01,-3.776060345765706039e+00,-7.386748714307351804e+00,-2.209044821049340079e+00,1.140197528784317704e+01,2.040984642327546439e+01,8.407726447792217783e+00,-8.349633282056664996e+00,-1.739017427221682865e+01
2.600000000000000089e-01,-3.643895305226011239e+00,-7.551974605324582868e+00,-2.662384325134127039e+00,1.113304836790558028e+01,2.090272414161171710e+01,8.945281985031643401e+00,-7.710301140654297392e+00,-1.710297134209811176e+01
2.616666670000000194e-01,-3.494318913068446442e+00,-7.711205255900333455e+00,-3.122101022464634390e+00,1.085947154974019213e+01,2.139509740200039900e+01,9.511256734284781800e+00,-7.055507180808315404e+00,-1.681313212884791497e+01
2.633333340000000300e-01,-3.327050198779318180e+00,-7.863787384883251796e+00,-3.587936120568040010e+00,1.057841720146271491e+01,2.188216782261818594e+01,1.010721334772788182e+01,-6.380164105268406161e+00,-1.651643047828915911e+01
2.650000000000000133e-01,-3.141849900956351860e+00,-8.009050754390418803e+00,-4.059444609112744295e+00,1.028698018430812411e+01,2.235884608765720216e+01,1.073374370076308537e+01,-5.679562065835777496e+00,-1.620865437247491769e+01
2.666666670000000239e-01,-2.938846051870049436e+00,-8.146220790427054936e+00,-4.536002845770830127e+00,9.982273841969933059e+00,2.281988346762822673e+01,1.139054735010744501e+01,-4.949399999331165034e+00,-1.588559387961475444e+01
2.683333340000000344e-01,-2.718713921733301841e+00,-8.274367736976069310e+00,-5.016859822398529012e+00,9.661531594216219432e+00,2.325996067040698634e+01,1.207649755900078148e+01,-4.185839899186962754e+00,-1.554315429985624419e+01
2.700000000000000178e-01,-2.482656304781245993e+00,-8.392466788797849020e+00,-5.501138656687009743e+00,9.322144258802939731e+00,2.367376345975965535e+01,1.278977336356347294e+01,-3.385427177177608549e+00,-1.517749172814295022e+01
2.716666670000000283e-01,-2.232029088636301672e+00,-8.499368532553134514e+00,-5.987809995504749239e+00,8.961744254796418119e+00,2.405604115490854511e+01,1.352786632632361297e+01,-2.545173072361693212e+00,-1.478497859138290593e+01
2.733333340000000389e-01,-1.968161408852612482e+00,-8.593795676548756646e+00,-6.475670183447030936e+00,8.578242065544722905e+00,2.440163072973228964e+01,1.428766564956340446e+01,-1.662645122664569985e+00,-1.436210508717514678e+01
2.750000000000000222e-01,-1.692280018278242926e+00,-8.674502928546282021e+00,-6.963358498275912467e+00,8.169863117724101897e+00,2.470549034543219591e+01,1.506550562601498200e+01,-7.358218530924249823e-01,-1.390549457260405397e+01
2.766666670000000328e-01,-1.405560796610161978e+00,-8.740330237617058629e+00,-7.449370837920333166e+00,7.735197571016472651e+00,2.496275518844819885e+01,1.585721361312180910e+01,2.369711038005322123e-01,-1.341188665251181966e+01
2.783333339999999878e-01,-1.109112453529940812e+00,-8.790219850385085465e+00,-7.932085278156214336e+00,7.273119426654787389e+00,2.516879604538265980e+01,1.665824515861987365e+01,1.257138827406164783e+00,-1.287809343548307872e+01
2.800000000000000266e-01,-8.039469330997160990e-01,-8.823283597093322328e+00,-8.409889939529254121e+00,6.782802779276829064e+00,2.531931921322450663e+01,1.746371214971230756e+01,2.325646945468830662e+00,-1.230092180251674527e+01
2.816666669999999817e-01,-4.910358594023569445e-01,-8.838844332012367744e+00,-8.881179110718898428e+00,6.263780556722304382e+00,2.541042059150244725e+01,1.826838019605592933e+01,3.443057867132958361e+00,-1.167712353413030257e+01
2.833333339999999922e-01,-1.714371332260989367e-01,-8.836426822276997939e+00,-9.344336709402581320e+00,5.715922301856386056e+00,2.543859614541996450e+01,1.906675274864215908e+01,4.609663249046218603e+00,-1.100349697504259261e+01
2.850000000000000311e-01,1.535905580151175620e-01,-8.815735008220489277e+00,-9.797848954114023456e+00,5.139380979025604645e+00,2.540087068275332172e+01,1.985319365515627155e+01,5.825525182235780974e+00,-1.027684694479625627e+01
2.866666669999999861e-01,4.825928008276726411e-01,-8.776634818513077363e+00,-1.024029441989788047e+01,4.534575113849289352e+00,2.529479616635023476e+01,2.062192791382230794e+01,7.090372437136219119e+00,-9.493806642408838314e+00
2.883333339999999967e-01,8.139977524728776448e-01,-8.719143031925444376e+00,-1.067032166464940524e+01,3.902182751758239920e+00,2.511843091033286512e+01,2.136703579473103787e+01,8.403460658666036309e+00,-8.650888213260174098e+00
2.900000000000000355e-01,1.146137317645367970e+00,-8.643409910064828949e+00,-1.108666555030715450e+01,3.243147448874462935e+00,2.487035036773210805e+01,2.208245915584855723e+01,9.763523135021646482e+00,-7.744471412014157785e+00
2.916666669999999906e-01,1.477369792512625457e+00,-8.549693262245028791e+00,-1.148811313505891185e+01,2.558633044488456409e+00,2.454968486055161137e+01,2.276211475305754206e+01,1.116877236315776400e+01,-6.770954182026261314e+00
2.933333340000000011e-01,1.806168745976053147e+00,-8.438349513999062523e+00,-1.187348023385641405e+01,1.850052609909958123e+00,2.415614337371612308e+01,2.339993422764922570e+01,1.261681191298123750e+01,-5.726779664113524682e+00
2.950000000000000400e-01,2.131068890739426180e+00,-8.309826337774168792e+00,-1.224164342729233645e+01,1.119068555869516146e+00,2.368994766133301511e+01,2.398993475375003470e+01,1.410469731140674554e+01,-4.608522296879150382e+00
2.966666669999999950e-01,2.450627254062414107e+00,-8.164647348660324155e+00,-1.259151133724184035e+01,3.674919459013441525e-01,2.315178531582574095e+01,2.452633420739043046e+01,1.562892614264249502e+01,-3.412919433281455639e+00
2.983333340000000056e-01,2.763585632279819126e+00,-8.003425721376782320e+00,-1.292202185763601285e+01,-4.027503912482998105e-01,2.254285100122720209e+01,2.500361922935231718e+01,1.718530194148648604e+01,-2.137084734749963744e+00
2.999999999999999889e-01,3.068926662214365830e+00,-7.826882968261354989e+00,-1.323218600656465682e+01,-1.189635272343440020e+00,2.186487406509405673e+01,2.541660883083785194e+01,1.876885058129560235e+01,-7.786184335188044425e-01
3.016666669999999995e-01,3.365904877669685380e+00,-7.635823493343785628e+00,-1.352106606346337969e+01,-1.991049083881082371e+00,2.112004487479913450e+01,2.576050538335157469e+01,2.037387591493909156e+01,6.642739207433552284e-01
3.033333340000000100e-01,3.654018468469283132e+00,-7.431069528020027626e+00,-1.378773307394660108e+01,-2.804865459441828524e+00,2.031100628226667837e+01,2.603102067708329059e+01,2.199380525740517101e+01,2.192578763391119345e+00
3.049999999999999933e-01,3.932998507861377835e+00,-7.213453813981797857e+00,-1.403123048040242615e+01,-3.629014856899199337e+00,1.944074237824447238e+01,2.622457547373144493e+01,2.362128320641310708e+01,3.806295108092376811e+00
3.066666670000000039e-01,4.202720548641423193e+00,-6.983844456383015320e+00,-1.425066163150448340e+01,-4.461430285931897721e+00,1.851258968917178294e+01,2.633836816195742614e+01,2.524818080245905350e+01,5.504231840496087713e+00
3.083333340000000145e-01,4.463123130164001751e+00,-6.743083178314019932e+00,-1.444521003144530624e+01,-5.300090963933460131e+00,1.753012328486814653e+01,2.637045523101097899e+01,2.686569781163639803e+01,7.283815434147181911e+00
3.099999999999999978e-01,4.714217587011912514e+00,-6.491983929994821878e+00,-1.461418706134000978e+01,-6.142966117269488713e+00,1.649710999815595258e+01,2.631971110956357762e+01,2.846441387403220702e+01,9.141119510719688535e+00
3.116666670000000083e-01,4.956022664556385848e+00,-6.231339029769041638e+00,-1.475700554424145317e+01,-6.988017140718284281e+00,1.541740811656496923e+01,2.618576900046791422e+01,3.003435973274277515e+01,1.107075758307332691e+01
3.133333340000000189e-01,5.188474003398964918e+00,-5.961828900099825468e+00,-1.487314659155836516e+01,-7.833243592766494956e+00,1.429489313624615221e+01,2.596899735918464458e+01,3.156521763609656972e+01,1.306572088326921666e+01
3.150000000000000022e-01,5.411386863203238029e+00,-5.684051497302854195e+00,-1.496212479799970474e+01,-8.676689309552513052e+00,1.313345898641285281e+01,2.567051164324182722e+01,3.304643970293975741e+01,1.511745059915162415e+01
3.166666670000000128e-01,5.624370505927005937e+00,-5.398580467641394875e+00,-1.502347224560439010e+01,-9.516358830550801784e+00,1.193693383716328249e+01,2.529218628165917337e+01,3.446736787998325013e+01,1.721574240195739236e+01
3.183333340000000233e-01,5.826728305900125804e+00,-5.105986553198193612e+00,-1.505673863792125466e+01,-1.035021130843264636e+01,1.070899926513851419e+01,2.483660102257645974e+01,3.581750326630680803e+01,1.934881771341247259e+01
3.200000000000000067e-01,6.017363713526000524e+00,-4.806781268588347977e+00,-1.506150138922595261e+01,-1.117616055944708897e+01,9.453271094948979325e+00,2.430697640792866565e+01,3.708655169941058460e+01,2.150331838448351007e+01
3.216666670000000172e-01,6.194760588941783830e+00,-4.501376097824335787e+00,-1.503735298140635201e+01,-1.199201344112682044e+01,8.173250860387744510e+00,2.370707872389518300e+01,3.826467635079504248e+01,2.366444943366723663e+01
3.233333340000000278e-01,6.357176601556704831e+00,-4.190106961273814434e+00,-1.498389878297598798e+01,-1.279550311898289827e+01,6.872247562971015356e+00,2.304105840517349080e+01,3.934272063193077429e+01,2.581634428751611310e+01
3.250000000000000111e-01,6.502765540863332916e+00,-3.873282782470737207e+00,-1.490074675049118369e+01,-1.358426889866378673e+01,5.553375170153540097e+00,2.231339484336729484e+01,4.031236370330849184e+01,2.794219901827954899e+01
3.266666670000000217e-01,6.630027778100202163e+00,-3.551191360404915898e+00,-1.478750399809477223e+01,-1.435581818001125320e+01,4.219578054758239993e+00,2.152880608043516375e+01,4.116627870660745003e+01,3.002464893299327287e+01
3.283333339999999767e-01,6.737872866990588960e+00,-3.224063230564064853e+00,-1.464378757405223830e+01,-1.510758290757925515e+01,2.873681004773441572e+00,2.069213359024232801e+01,4.189835354348314667e+01,3.204602604494957774e+01
3.300000000000000155e-01,6.825553191291310995e+00,-2.892100881190793782e+00,-1.446924869625984655e+01,-1.583691404165810823e+01,1.518354414380139517e+00,1.980818764175705482e+01,4.250394204471781023e+01,3.398880016953029326e+01
3.316666670000000261e-01,6.892632380036847195e+00,-2.555452506399059853e+00,-1.426359918972226737e+01,-1.654105180935584585e+01,1.561645548998976119e-01,1.888161771055261795e+01,4.297982119080603525e+01,3.583602389267005606e+01
3.333333339999999811e-01,6.938961213526403604e+00,-2.214210961477139250e+00,-1.402660360099049264e+01,-1.721714468783072860e+01,-1.210406569270541688e+00,1.791682856005503766e+01,4.332399998286606291e+01,3.757183532138046189e+01
3.350000000000000200e-01,6.964653057365588040e+00,-1.868458170532685925e+00,-1.375806099236249302e+01,-1.786231071407956605e+01,-2.578962715371511560e+00,1.691793176516623021e+01,4.353577325665295916e+01,3.918176997782622095e+01
3.366666670000000305e-01,6.970066162476120653e+00,-1.518299497084932836e+00,-1.345780147905299451e+01,-1.847366244148987136e+01,-3.947229629279331409e+00,1.588866669809746313e+01,4.361557372916718123e+01,4.065301445402540992e+01
3.383333339999999856e-01,6.955794786429534859e+00,-1.163903607088344394e+00,-1.312572852796150080e+01,-1.904827733609440799e+01,-5.312973258935629772e+00,1.483239315765128907e+01,4.356479928020094405e+01,4.197473377964463026e+01
3.400000000000000244e-01,6.922671454057727658e+00,-8.054008793845127689e-01,-1.276188402394242161e+01,-1.958326326223831515e+01,-6.673859226549148538e+00,1.375211158363318020e+01,4.338570275219863959e+01,4.313822428881994853e+01
3.416666670000000350e-01,6.871776523153092953e+00,-4.428904589675899950e-01,-1.236643840975128406e+01,-2.007584040594919017e+01,-8.027472978954635963e+00,1.265038867243174181e+01,4.308133026306013136e+01,4.413717971595648493e+01
3.433333339999999900e-01,6.804457322642131878e+00,-7.643859051964106699e-02,-1.193974733157910606e+01,-2.052335977449518722e+01,-9.371283650215486816e+00,1.152946628410629870e+01,4.265547395717037205e+01,4.496779030802176180e+01
3.450000000000000289e-01,6.722302715652226368e+00,2.938802204343906044e-01,-1.148235605469900200e+01,-2.092329900346307170e+01,-1.070264287729924746e+01,1.039132740569571745e+01,4.211265025143287488e+01,4.562851836499912395e+01
3.466666670000000394e-01,6.626929258164748759e+00,6.679807426378054913e-01,-1.099496547711508221e+01,-2.127322992492853260e+01,-1.201878939024325099e+01,9.237715676477584736e+00,4.145802897591025271e+01,4.611994927057870086e+01
3.483333339999999945e-01,6.519853560855183972e+00,1.045696050226653462e+00,-1.047840789082122726e+01,-2.157083857838880547e+01,-1.331682040369516962e+01,8.070164805075838999e+00,4.069715120621884097e+01,4.644450141451729763e+01
3.499999999999999778e-01,6.402590081635720409e+00,1.426834287714833005e+00,-9.933646469704818571e+00,-2.181400687938890570e+01,-1.459374201155810624e+01,6.889955308699691194e+00,3.983586063278984568e+01,4.660615394474086060e+01
3.516666670000000439e-01,6.276551260509640073e+00,1.811203498288236569e+00,-9.361781912318976495e+00,-2.200091067048670723e+01,-1.584638793579441085e+01,5.698230027321915081e+00,3.888014519563333238e+01,4.661024986077029553e+01
3.533333339999999989e-01,6.142905817756645348e+00,2.198560552679746927e+00,-8.764129475577055572e+00,-2.213005375726217139e+01,-1.707124508637877369e+01,4.496088474333046037e+00,3.783580611828475071e+01,4.646334023948539738e+01
3.549999999999999822e-01,6.002567310850522198e+00,2.588515749832997148e+00,-8.142203833254715306e+00,-2.220025392228640726e+01,-1.826449043982690412e+01,3.284648948647801436e+00,3.670830285815797112e+01,4.617291799230200411e+01
3.566666669999999928e-01,5.856237705306604369e+00,2.980552079436479040e+00,-7.497682354004103544e+00,-2.221060069768890699e+01,-1.942218416000732972e+01,2.065100358176463313e+00,3.550287078400400276e+01,4.574699941422377236e+01
3.583333340000000033e-01,5.704436811602728419e+00,3.374026896981159318e+00,-6.832379052405067377e+00,-2.216045356358500840e+01,-2.054028043627111799e+01,8.387723470431909245e-01,3.422447688879194772e+01,4.519377401572846509e+01
3.599999999999999867e-01,5.547614635957111240e+00,3.768208208542222604e+00,-6.148245245862005603e+00,-2.204943492993935195e+01,-2.161463506330585460e+01,-3.928406314069503580e-01,3.287780919549668823e+01,4.452138898671847045e+01
3.616666669999999972e-01,5.386240966374075789e+00,4.162243227292227843e+00,-5.447341419339089441e+00,-2.187743975620136894e+01,-2.264116431642661098e+01,-1.628363688835889445e+00,3.146692522484357113e+01,4.373789656943559834e+01
3.633333340000000078e-01,5.220838138489637181e+00,4.555158446428406727e+00,-4.731804122282834868e+00,-2.164467409335044223e+01,-2.361573886356866936e+01,-2.866613176171871391e+00,2.999541102278528371e+01,4.285095945506088810e+01
3.649999999999999911e-01,5.051842042114424558e+00,4.945881866305689378e+00,-4.003850341237580324e+00,-2.135171156804680948e+01,-2.453418178549312501e+01,-4.106446074983189476e+00,2.846639545510167224e+01,4.186762460122503171e+01
3.666666670000000017e-01,4.879449146681202443e+00,5.333287670946994297e+00,-3.265665776842872070e+00,-2.099954123421594332e+01,-2.539243025211817795e+01,-5.346394849823341566e+00,2.688250007598412594e+01,4.079425401029759257e+01
3.683333340000000122e-01,4.703650390692792449e+00,5.716240923363885784e+00,-2.519369149736442548e+00,-2.058961132851984743e+01,-2.618652311485592676e+01,-6.584564033682939410e+00,2.524584449653151097e+01,3.963654634857906700e+01
3.699999999999999956e-01,4.524279020288396680e+00,6.093593173431144372e+00,-1.766995666300372747e+00,-2.012376207240601289e+01,-2.691273400249452763e+01,-7.818609395638218551e+00,2.355826382084524084e+01,3.839960824863037914e+01
3.716666670000000061e-01,4.340977870549401096e+00,6.464154491583869344e+00,-1.010534153692154380e+00,-1.960416817458748540e+01,-2.756768271796867253e+01,-9.045738455219327179e+00,2.182155324853161105e+01,3.708782257229153601e+01
3.733333340000000167e-01,4.153281255268574945e+00,6.826687303005557261e+00,-2.519976534532881729e-01,-1.903329666306289880e+01,-2.814835313212143220e+01,-1.026272379680275471e+01,2.003755833587309354e+01,3.570503260286027114e+01
3.750000000000000000e-01,3.960703634906170834e+00,7.179875498952337232e+00,5.065537098658620119e-01,-1.841391693844198585e+01,-2.865210418686322313e+01,-1.146588505273379965e+01,1.820832184787102292e+01,3.425461729433500579e+01
3.766666670000000106e-01,3.762811678126861015e+00,7.522407913773103694e+00,1.263072825693501988e+00,-1.774911022789555659e+01,-2.907672438927631475e+01,-1.265112313446794445e+01,1.633622863149464521e+01,3.273966414890301735e+01
3.783333340000000211e-01,3.559336821076829249e+00,7.853085699585710344e+00,2.015484952351624504e+00,-1.704219639392456287e+01,-2.942049660483968410e+01,-1.381400126727150379e+01,1.442403855635852317e+01,3.116306144730282668e+01
3.800000000000000044e-01,3.350270654208466148e+00,8.170778046615586376e+00,2.761716487500111228e+00,-1.629674208978990535e+01,-2.968224927878419805e+01,-1.494971745775469074e+01,1.247495701745421570e+01,2.952755160781026333e+01
3.816666670000000150e-01,3.135860724264894372e+00,8.474376364383394034e+00,3.499685433450728578e+00,-1.551648371648512814e+01,-2.986136840049856644e+01,-1.605312716875491219e+01,1.049267633039734093e+01,2.783564341423719668e+01
3.833333340000000256e-01,2.916384999351851803e+00,8.762778016057630737e+00,4.227322502285772998e+00,-1.470526921976955315e+01,-2.995778955632636453e+01,-1.711888919186234048e+01,8.481379297127622507e+00,2.608985474352451917e+01
3.850000000000000089e-01,2.692130509695901175e+00,9.034897681285157134e+00,4.942621957761694773e+00,-1.386703321683141787e+01,-2.997196801370142438e+01,-1.814156587929369735e+01,6.445745273611044546e+00,2.429296781681483708e+01
3.866666670000000194e-01,2.463453028834119873e+00,9.289601637394065747e+00,5.643661309791680125e+00,-1.300571889092195654e+01,-2.990487244142898504e+01,-1.911576463493290490e+01,4.390906614767198235e+00,2.244811219354875576e+01
3.883333340000000300e-01,2.230749164059940615e+00,9.525709415734429086e+00,6.328575732405093746e+00,-1.212519782969264526e+01,-2.975801681235476082e+01,-2.003625669903268403e+01,2.322439300335628953e+00,2.055875498710997817e+01
3.900000000000000133e-01,1.994526718975118795e+00,9.742067634013094946e+00,6.995609472398562900e+00,-1.122921744941361410e+01,-2.953350985209331014e+01,-2.089808873868788197e+01,2.463677323482478254e-01,1.862875154258635035e+01
3.916666670000000239e-01,1.755420474453400548e+00,9.937621009912668057e+00,7.643080401484778186e+00,-1.032133817488285743e+01,-2.923403708832329784e+01,-2.169671405182359081e+01,-1.830847691538946220e+00,1.666231102434349154e+01
3.933333340000000344e-01,1.513910791097880182e+00,1.011138950891925958e+01,8.269329341438769632e+00,-9.404957844730953198e+00,-2.886276720423771280e+01,-2.242806701315648610e+01,-3.902278577845589069e+00,1.466409028534059544e+01
3.950000000000000178e-01,1.270268670012159040e+00,1.026246106331423036e+01,8.872694699750892866e+00,-8.483281660195990170e+00,-2.842325610405572434e+01,-2.308870567925111672e+01,-5.960527719476677255e+00,1.263927420225884291e+01
3.966666669999999728e-01,1.024652417403363547e+00,1.038996027527695354e+01,9.451543846162614670e+00,-7.559255951989407585e+00,-2.791938861186502052e+01,-2.367593734564603380e+01,-7.997732962854257721e+00,1.059357436166184030e+01
3.983333340000000389e-01,7.772035115042116304e-01,1.049305103425269436e+01,1.000432870459400370e+01,-6.635588891278213275e+00,-2.735535344588664941e+01,-2.418780975401337940e+01,-1.000569417712966747e+01,8.533258295107216895e+00
4.000000000000000222e-01,5.280764443676511100e-01,1.057099581946560285e+01,1.052964921877702942e+01,-5.714809176894111609e+00,-2.673564591738326612e+01,-2.462308656636593795e+01,-1.197593730708368653e+01,6.465269485571989883e+00
4.016666669999999773e-01,2.775263243841059047e-01,1.062317916851308119e+01,1.102622202020997833e+01,-4.799284656207472466e+00,-2.606495845827685542e+01,-2.498127520338297103e+01,-1.389979519966503574e+01,4.397141718728310167e+00
4.033333340000000433e-01,2.597423441369439701e-02,1.064910152434155322e+01,1.149286684189271845e+01,-3.891241928123627680e+00,-2.534807004942868147e+01,-2.526258550404903147e+01,-1.576867025808955525e+01,2.336988011901651063e+00
4.050000000000000266e-01,-2.259780411845048742e-01,1.064838937745280667e+01,1.192850324284194130e+01,-2.992715164052208277e+00,-2.458974907066194504e+01,-2.546792758684774682e+01,-1.757414759787194569e+01,2.933955054559094222e-01
4.066666669999999817e-01,-4.775104104511343484e-01,1.062080146300849925e+01,1.233224197098204122e+01,-2.105519569077333841e+00,-2.379477976736565381e+01,-2.559885503883770141e+01,-1.930815314683388451e+01,-1.724801746088173271e+00
4.083333340000000478e-01,-7.275211026430907779e-01,1.056622566575989097e+01,1.270341015408690666e+01,-1.231253439301271513e+00,-2.296788942873516959e+01,-2.565751621772214719e+01,-2.096307067397060209e+01,-3.708437143971316186e+00
4.100000000000000311e-01,-9.747356897470369486e-01,1.048468265284192213e+01,1.304152354944226744e+01,-3.712896675114200629e-01,-2.211361228825573022e+01,-2.564664126086962881e+01,-2.253199154766054946e+01,-5.648338870700394310e+00
4.116666669999999861e-01,-1.217985115835577226e+00,1.037634633254640626e+01,1.334633458006933537e+01,4.732353629608450629e-01,-2.123625833391202278e+01,-2.556953686445155682e+01,-2.400888335067939749e+01,-7.535633821799058829e+00
4.133333339999999967e-01,-1.456627693338639951e+00,1.024153168789015567e+01,1.361777834511824103e+01,1.301381844465482329e+00,-2.033990096058763086e+01,-2.543000883542734059e+01,-2.538862477404400053e+01,-9.361910094283581785e+00
4.150000000000000355e-01,-1.690559140947413219e+00,1.008073230637548079e+01,1.385599602706931321e+01,2.112395395200784343e+00,-1.942835310329599352e+01,-2.523226118732955214e+01,-2.666705965884893104e+01,-1.111939400373501918e+01
4.166666669999999906e-01,-1.920120514918852495e+00,9.894650448364057382e+00,1.406134029408251429e+01,2.905675743773261210e+00,-1.850514290582434285e+01,-2.498075859988562542e+01,-2.784109093729698614e+01,-1.280111980475535916e+01
4.183333340000000011e-01,-2.145990477632195415e+00,9.684231390070479506e+00,1.423432233755410081e+01,3.680663274720144873e+00,-1.757346289620936020e+01,-2.468003077253516864e+01,-2.890883079827353441e+01,-1.440089849524276744e+01
4.200000000000000400e-01,-2.369075316465539149e+00,9.450608833930450814e+00,1.437557791495362025e+01,4.436875955905120961e+00,-1.663611661695433597e+01,-2.433457530994580509e+01,-2.986960564926935646e+01,-1.591336283843006960e+01
4.216666669999999950e-01,-2.590400615100284742e+00,9.195022002762183178e+00,1.448583025506305155e+01,5.173921826543482538e+00,-1.569550309990580139e+01,-2.394880417520336024e+01,-3.072385218459271172e+01,-1.733411595971625019e+01
4.233333340000000056e-01,-2.811003010992834561e+00,8.918780493212468130e+00,1.456586494948892962e+01,5.891451513897414394e+00,-1.475361480744461673e+01,-2.352692335301516380e+01,-3.147309635889627089e+01,-1.865981952367918240e+01
4.250000000000000444e-01,-3.031806033617463036e+00,8.623252684509047583e+00,1.461650719944598542e+01,6.589185872203169758e+00,-1.381202774253215537e+01,-2.307288764523755376e+01,-3.211988780603000748e+01,-1.988815490572824984e+01
4.266666669999999995e-01,-3.253442461450302581e+00,8.309769898930923659e+00,1.463860096471661620e+01,7.266897044158151076e+00,-1.287200305787368038e+01,-2.259036877303325141e+01,-3.266758736781139305e+01,-2.101785627119268440e+01
4.283333340000000100e-01,-3.476129235191382172e+00,7.979582614552258590e+00,1.463301034604558915e+01,7.924399595909780381e+00,-1.193450088668053510e+01,-2.208264501150964776e+01,-3.312018993575740211e+01,-2.204878284156553292e+01
4.300000000000000488e-01,-3.699523038089312266e+00,7.633903049253691009e+00,1.460061865591533881e+01,8.561518059500572875e+00,-1.100020165658623839e+01,-2.155257276396962141e+01,-3.348215862781120933e+01,-2.298193405641195852e+01
4.316666670000000039e-01,-3.922499227355360496e+00,7.273883116603014010e+00,1.454227825272637808e+01,9.178096930744096937e+00,-1.006953276774856398e+01,-2.100257857362321090e+01,-3.375828918387041711e+01,-2.381936570296210931e+01
4.333333340000000145e-01,-4.143200788600799100e+00,6.900688859478706583e+00,1.445881289395673264e+01,9.773990585685705668e+00,-9.142757672302961325e+00,-2.043466236468355035e+01,-3.395359659057351109e+01,-2.456419392858138195e+01
4.349999999999999978e-01,-4.359301497882360543e+00,6.515488483298726763e+00,1.435105349457920454e+01,1.034902633712203190e+01,-8.220073352638713970e+00,-1.985042119148518225e+01,-3.407316727450274385e+01,-2.522041198382521898e+01
4.366666670000000083e-01,-4.568584660584702917e+00,6.119493592368193013e+00,1.421984422279499682e+01,1.090297272355659963e+01,-7.301704203253335912e+00,-1.925110426323550428e+01,-3.412202379517728446e+01,-2.579265078919633680e+01
4.383333340000000189e-01,-4.768998769771078727e+00,5.713913248930567512e+00,1.406603802927095970e+01,1.143551439329836406e+01,-6.387932520109395718e+00,-1.863769868709278654e+01,-3.410506473692597496e+01,-2.628592934793452685e+01
4.400000000000000022e-01,-4.958571404162136709e+00,5.300031033239694267e+00,1.389050553678817757e+01,1.194621146111402155e+01,-5.479109554533199145e+00,-1.801098643761029905e+01,-3.402700658284903312e+01,-2.670543701758017718e+01
4.416666670000000128e-01,-5.135403648379142538e+00,4.879176719036549592e+00,1.369415472417431268e+01,1.243450145688857056e+01,-4.575706078642573615e+00,-1.737159684666664816e+01,-3.389223063494648613e+01,-2.705635697161573106e+01
4.433333340000000233e-01,-5.297773941026011180e+00,4.452784886528753816e+00,1.347789144382475435e+01,1.289971481758259308e+01,-3.678286046929271969e+00,-1.672006854499714734e+01,-3.370478398976114676e+01,-2.734373826675843944e+01
4.450000000000000067e-01,-5.444276036653796780e+00,4.022336071066057173e+00,1.324257245418250761e+01,1.334110971774285481e+01,-2.787513481490353495e+00,-1.605689699934183778e+01,-3.346830543127147450e+01,-2.757238560636476876e+01
4.466666670000000172e-01,-5.573797695266629049e+00,3.589261729323677041e+00,1.298903500243920917e+01,1.375792780748185429e+01,-1.904157923646502715e+00,-1.538261253802295592e+01,-3.318600477448889308e+01,-2.774677667593885744e+01
4.483333339999999723e-01,-5.685478828771220350e+00,3.155030949488184078e+00,1.271809847451545927e+01,1.414939647954131274e+01,-1.029094559308782131e+00,-1.469780916763348522e+01,-3.286071586594281513e+01,-2.787101861034730632e+01
4.500000000000000111e-01,-5.778627503295681755e+00,2.721158872040642329e+00,1.243054431867851051e+01,1.451474076787964940e+01,-1.632674686085228144e-01,-1.400312823166347265e+01,-3.249497183563754987e+01,-2.794881800056299426e+01
4.516666670000000217e-01,-5.852694821969059547e+00,2.289124987324608007e+00,1.212713917924357432e+01,1.485319845122636373e+01,6.922931606647368952e-01,-1.329924948531668072e+01,-3.209102206739031971e+01,-2.798347413917885618e+01
4.533333339999999767e-01,-5.907227425290673573e+00,1.860389519260331248e+00,1.180865459084024494e+01,1.516399552723171951e+01,1.536492817279731637e+00,-1.258688504182394574e+01,-3.165093476833377650e+01,-2.797790809316261473e+01
4.550000000000000155e-01,-5.941798878600735634e+00,1.436446342239156237e+00,1.147589690325737521e+01,1.544640108131439149e+01,2.368147806627713958e+00,-1.186686066390242011e+01,-3.117661004819172632e+01,-2.793469772926648176e+01
4.566666670000000261e-01,-5.956078494331876527e+00,1.018610529531159603e+00,1.112968665885046349e+01,1.569974899186532014e+01,3.185998852454111852e+00,-1.114012604499218462e+01,-3.066976956304704416e+01,-2.785612123393488559e+01
4.583333339999999811e-01,-5.950091761481208330e+00,6.080429305013619334e-01,1.077087130986224572e+01,1.592341546397326901e+01,3.988764308497520616e+00,-1.040771537333975694e+01,-3.013203502605717787e+01,-2.774419700766881292e+01
4.600000000000000200e-01,-5.924290856154414975e+00,2.057666943728498898e-01,1.040032608169023653e+01,1.611687552330960926e+01,4.775137013272944486e+00,-9.670776450200502694e+00,-2.956501718569904824e+01,-2.760073382935196662e+01
4.616666670000000305e-01,-5.879593624421183939e+00,-1.873723497458585352e-01,1.001893191508868242e+01,1.627971307620877184e+01,5.543779325845892281e+00,-8.930552377011485632e+00,-2.897027372291420377e+01,-2.742742080310084063e+01
4.633333339999999856e-01,-5.817351038744186909e+00,-5.706603296903915989e-01,9.627629930966614680e+00,1.641161272656382764e+01,6.293339828662881885e+00,-8.188351182276331741e+00,-2.834933960137451336e+01,-2.722590969987242104e+01
4.650000000000000244e-01,-5.739267672242648111e+00,-9.434171621024787235e-01,9.227437855108027165e+00,1.651243402326428011e+01,7.022485480400818325e+00,-7.445595564366431773e+00,-2.770380089965545878e+01,-2.699780833478793696e+01
4.666666670000000350e-01,-5.647178443603059428e+00,-1.304948146939890918e+00,8.819462825233006953e+00,1.658221079689399957e+01,7.729964634316170979e+00,-6.703807821979382631e+00,-2.703529767426760344e+01,-2.674470676637275446e+01
4.683333339999999900e-01,-5.543388182743914427e+00,-1.654678331033732075e+00,8.404868680184463869e+00,1.662114021122982521e+01,8.414616582351678531e+00,-5.964609365872277635e+00,-2.634550979228383127e+01,-2.646826584401400240e+01
4.699999999999999734e-01,-5.431031201876871606e+00,-1.992271924338092193e+00,7.984763849688773618e+00,1.662958038010359019e+01,9.075466938502573910e+00,-5.229678519085168453e+00,-2.563619653258105302e+01,-2.617023013959864031e+01
4.716666670000000394e-01,-5.314032232505295994e+00,-2.317566173817805275e+00,7.560154516710355210e+00,1.660804854546938003e+01,9.711819528193146311e+00,-4.500759292618170093e+00,-2.490928247691316955e+01,-2.585235716671684969e+01
4.733333339999999945e-01,-5.196447334269399754e+00,-2.630519651101933754e+00,7.132059433916158042e+00,1.655723036278045512e+01,1.032323663686012161e+01,-3.779664056542341388e+00,-2.416685461312509275e+01,-2.551643530842490648e+01
4.749999999999999778e-01,-5.081815789510297776e+00,-2.931275071778471464e+00,6.701483225900119578e+00,1.647800013947398057e+01,1.090958061136495338e+01,-3.068244283041140719e+00,-2.341117865960872990e+01,-2.516421113132652110e+01
4.766666670000000439e-01,-4.972998669743659228e+00,-3.220132833421161855e+00,6.269421644001292648e+00,1.637144024330517666e+01,1.147101201370287527e+01,-2.368359158976613088e+00,-2.264464620175197140e+01,-2.479739111682637542e+01
4.783333339999999989e-01,-4.872039541110082972e+00,-3.497510258259963756e+00,5.836788551304028516e+00,1.623886202554937697e+01,1.200804406162570892e+01,-1.681813452717240143e+00,-2.186973089874304677e+01,-2.441776532139250122e+01
4.799999999999999822e-01,-4.780394131534329460e+00,-3.763889112576757512e+00,5.404451275193211224e+00,1.608179952741808805e+01,1.252153223143500860e+01,-1.010340274956656792e+00,-2.108901218653008058e+01,-2.402722262957344057e+01
4.816666670000000483e-01,-4.698982497647600454e+00,-4.019775055852906398e+00,4.973172200176311897e+00,1.590192047652111995e+01,1.301276274932041765e+01,-3.555288537225602119e-01,-2.030513683295946947e+01,-2.362768469679598482e+01
4.833333340000000033e-01,-4.628047703963722448e+00,-4.265614368127075728e+00,4.543587820725569770e+00,1.570104843055831623e+01,1.348340542792616148e+01,2.811803742699472419e-01,-1.952078443840053623e+01,-2.322114025210792221e+01
4.849999999999999867e-01,-4.567189219544740553e+00,-4.501807634576231898e+00,4.116228196564211572e+00,1.548118992674301708e+01,1.393548808427124186e+01,8.985280908751712703e-01,-1.873862904001414975e+01,-2.280976070467464467e+01
4.866666669999999972e-01,-4.515569647321180824e+00,-4.728905308719791201e+00,3.691484818886235253e+00,1.524453923620579765e+01,1.437139481617845505e+01,1.495498368136978229e+00,-1.796130814286084032e+01,-2.239580632421377615e+01
4.883333340000000078e-01,-4.471998989688117376e+00,-4.947600812459911346e+00,3.269597757045445086e+00,1.499347566709714918e+01,1.479377861342848455e+01,2.071394090443364089e+00,-1.719132984211962878e+01,-2.198156879763422822e+01
4.899999999999999911e-01,-4.435024504156389824e+00,-5.158666160012698398e+00,2.850658256057530426e+00,1.473048666672426066e+01,1.520553927524543880e+01,2.625960842878139800e+00,-1.643098209860001901e+01,-2.156936439036568487e+01
4.916666670000000017e-01,-4.402996413931614228e+00,-5.362995744466651615e+00,2.434581133007536646e+00,1.445806756509393232e+01,1.560982830855273029e+01,3.159482616331979798e+00,-1.568229759420287905e+01,-2.116150001138326786e+01
4.933333340000000122e-01,-4.374081202308329530e+00,-5.561534302191238233e+00,2.021040328120371932e+00,1.417869260577092305e+01,1.601002149571821676e+01,3.672829465033794705e+00,-1.494704454793753712e+01,-2.076021244880442040e+01
4.949999999999999956e-01,-4.346246797252507399e+00,-5.755218849361637190e+00,1.609409206245362878e+00,1.389475270696245701e+01,1.640964377582732681e+01,4.167562368943877438e+00,-1.422661879793716544e+01,-2.036759551089144082e+01
4.966666670000000061e-01,-4.317297618290166561e+00,-5.945034748311310402e+00,1.198748530521651201e+00,1.360854254356105741e+01,1.681224069393654119e+01,4.646006257876985401e+00,-1.352202791288938144e+01,-1.998554178178672913e+01
4.983333340000000167e-01,-4.284908977262805507e+00,-6.131947671312849124e+00,7.878182768153149107e-01,1.332222609194482743e+01,1.722117930698604837e+01,5.111358670253716596e+00,-1.283380196932439432e+01,-1.961569050764628486e+01
5.000000000000000000e-01,-4.246703683308225230e+00,-6.316797764476036470e+00,3.751111051678079900e-01,1.303765494949198889e+01,1.763944907386593997e+01,5.567743433254274343e+00,-1.216187646810570122e+01,-1.925935766042776365e+01
5.016666670000000661e-01,-4.200294897101327862e+00,-6.500195133447464357e+00,-4.096768182640275757e-02,1.275624780560614013e+01,1.806944067422509548e+01,6.020012089945891987e+00,-1.150540524740763182e+01,-1.891737025376293246e+01
5.033333340000000211e-01,-4.143394440233318932e+00,-6.682393050995134587e+00,-4.618794514992548006e-01,1.247887915068655929e+01,1.851271208720444150e+01,6.473483374445807570e+00,-1.086249856046860707e+01,-1.858976269307926543e+01
5.050000009999999762e-01,-4.073987528145663894e+00,-6.863083047654520819e+00,-8.887324755354658601e-01,1.220573268725553007e+01,1.896975180777270253e+01,6.933687292555431370e+00,-1.023007840487635534e+01,-1.827557310744604990e+01
5.066666670000000705e-01,-3.990411249519205228e+00,-7.041368498576094481e+00,-1.322125588701434928e+00,1.193618678638260100e+01,1.943979585295050327e+01,7.406106967730247348e+00,-9.603919477097271340e+00,-1.797285823123078785e+01
5.083333340000000256e-01,-3.891387986735038051e+00,-7.216254900387229831e+00,-1.762250460618942194e+00,1.166890486902746638e+01,1.992086891751639754e+01,7.895919078626653764e+00,-8.978953153546807897e+00,-1.767885629111032841e+01
5.100000009999999806e-01,-3.776060424352587042e+00,-7.386748798445495368e+00,-2.209044796524824772e+00,1.140197538587046289e+01,2.040984663202546301e+01,8.407725828245222743e+00,-8.349633897744457300e+00,-1.739017463833192778e+01
5.116666670000000749e-01,-3.643895343253883645e+00,-7.551974688071607211e+00,-2.662384321967375289e+00,1.113304848221390664e+01,2.090272439657698911e+01,8.945281393379783452e+00,-7.710301787261578887e+00,-1.710297174982672885e+01
5.133333340000000300e-01,-3.494318909552923902e+00,-7.711205336116377929e+00,-3.122101040776937175e+00,1.085947167933160173e+01,2.139509770163624225e+01,9.511256175148893988e+00,-7.055507853862906131e+00,-1.681313257572915631e+01
5.150000009999999850e-01,-3.327050152462674326e+00,-7.863787461102138110e+00,-3.587936160525428075e+00,1.057841734501801234e+01,2.188216816480749571e+01,1.010721282737033277e+01,-6.380164798667638415e+00,-1.651643096092317720e+01
5.166666669999999684e-01,-3.141849810309080393e+00,-8.009050824782496747e+00,-4.059444670917529585e+00,1.028698034012689533e+01,2.235884646957179456e+01,1.073374322734660424e+01,-5.679562771535226595e+00,-1.620865488631622853e+01
5.183333340000000344e-01,-2.938845915112342944e+00,-8.146220852764072262e+00,-4.536002929643126791e+00,9.982274007904303303e+00,2.281988388557072867e+01,1.139054693393535445e+01,-4.949400707024309121e+00,-1.588559441874923550e+01
5.200000009999999895e-01,-2.718713736877305998e+00,-8.274367788598770090e+00,-5.016859928547487968e+00,9.661531767598866338e+00,2.325996111963429414e+01,1.207649721273500099e+01,-4.185840595979427370e+00,-1.554315485676373321e+01
5.216666669999999728e-01,-2.482656069694520795e+00,-8.392466826587350326e+00,-5.501138785272108755e+00,9.322144436370523479e+00,2.367376393428976300e+01,1.278977310241661058e+01,-3.385427847260474632e+00,-1.517749229344818040e+01
5.233333340000000389e-01,-2.232028801127388995e+00,-8.499368552907181851e+00,-5.987810146586619808e+00,8.961744432609357602e+00,2.405604164731308714e+01,1.352786616821803456e+01,-2.545173696689762011e+00,-1.478497915359830728e+01
5.250000009999999939e-01,-1.968161066780297563e+00,-8.593795675364606979e+00,-6.475670356927817117e+00,8.578242238905684047e+00,2.440163123091744879e+01,1.428766561525051593e+01,-1.662645678648361436e+00,-1.436210563244027760e+01
5.266666669999999773e-01,-1.692279619684674996e+00,-8.674502901211571526e+00,-6.963358693829451163e+00,8.169863281095672392e+00,2.470549084441146448e+01,1.506550573914688584e+01,-7.358223143103110875e-01,-1.390549508442623150e+01
5.283333340000000433e-01,-1.405560339879299070e+00,-8.740330179010621592e+00,-7.449371054911840595e+00,7.735197717941423967e+00,2.496275567211090163e+01,1.585721390026573729e+01,2.369707678578099053e-01,-1.341188711151471580e+01
5.300000009999999984e-01,-1.109111937572412998e+00,-8.790219754890147286e+00,-7.932085515551758448e+00,7.273119549681117846e+00,2.516879649826455534e+01,1.665824564920327688e+01,1.257138651546010344e+00,-1.287809381917188034e+01
5.316666669999999817e-01,-8.039463575642220583e-01,-8.823283458624958442e+00,-8.409890195795366452e+00,6.782802869890155684e+00,2.531931961728446367e+01,1.746371287588771537e+01,2.325646968950067617e+00,-1.230092208506678730e+01
5.333333340000000478e-01,-4.910352249145185644e-01,-8.838844144062223407e+00,-8.881179383712950681e+00,6.263780605289527514e+00,2.541042092591466783e+01,1.826838119247188885e+01,3.443058133744385074e+00,-1.167712368621181795e+01
5.350000010000000028e-01,-1.714364416550311909e-01,-8.836426577978025776e+00,-9.344336996254094529e+00,5.715922297584842049e+00,2.543859638638839016e+01,1.906675405210367913e+01,4.609663807091638255e+00,-1.100349696369228170e+01
5.366666669999999861e-01,1.535913032633492992e-01,-8.815734700434246562e+00,-9.797849251098622148e+00,5.139380909940974185e+00,2.540087080335861103e+01,1.985319530416083467e+01,5.825526084407410821e+00,-1.027684673334895571e+01
5.383333340000000522e-01,4.825935944902258190e-01,-8.776634439943466148e+00,-1.024029472230480486e+01,4.534574966798444073e+00,2.529479613643986724e+01,2.062192994795413981e+01,7.090373740252814194e+00,-9.493806190505619469e+00
5.400000010000000072e-01,8.139985870853113648e-01,-8.719142575261813022e+00,-1.067032196664423438e+01,3.902182512442708973e+00,2.511843069646812054e+01,2.136703825389373890e+01,8.403462423249639102e+00,-8.650887476949762345e+00
5.416666669999999906e-01,1.146138183174911562e+00,-8.643409368157769279e+00,-1.108666584479240669e+01,3.243147101919221065e+00,2.487034993320443732e+01,2.208246207932040406e+01,9.763525424690293164e+00,-7.744470343965361714e+00
5.433333340000000566e-01,1.477370675972599301e+00,-8.549692628318304344e+00,-1.148811341353474802e+01,2.558632573553911271e+00,2.454968416548418730e+01,2.276211817835083906e+01,1.116877524380416276e+01,-6.770952731872018404e+00
5.450000010000000117e-01,1.806169631026018685e+00,-8.438348781901115814e+00,-1.187348048628490815e+01,1.850051997854188501e+00,2.415614237526857266e+01,2.339993818915311508e+01,1.261681545170640639e+01,-5.726777778950152609e+00
5.466666669999999950e-01,2.131069757277569643e+00,-8.309825502272040865e+00,-1.224164364196938415e+01,1.119067784967378687e+00,2.368994631402631867e+01,2.398993928114180108e+01,1.410470157518175327e+01,-4.608519921941604203e+00
5.483333340000000611e-01,2.450628077817352590e+00,-8.164646405778873017e+00,-1.259151150068122149e+01,3.674909981289341543e-01,2.315178357200750980e+01,2.452633932380067705e+01,1.562893119666605912e+01,-3.412916512819196058e+00
5.500000010000000161e-01,2.763586384411176322e+00,-8.003424668785905638e+00,-1.292202195447087476e+01,-4.027515338548796064e-01,2.254284881169964549e+01,2.500362494926564594e+01,1.718530784720442028e+01,-2.137081213132148161e+00
5.516666669999999995e-01,3.068927308933807829e+00,-7.826881805712663898e+00,-1.323218601947315776e+01,-1.189636627248161549e+00,2.186487137992493857e+01,2.541661515772298330e+01,1.876885739405676645e+01,-7.786142565899591972e-01
5.533333340000000655e-01,3.365905379895103522e+00,-7.635822223157771482e+00,-1.352106597312511838e+01,-1.991050667517906936e+00,2.112004164433853859e+01,2.576051230701435557e+01,2.037388368125821714e+01,6.642788040298908125e-01
5.550000010000000206e-01,3.654018781528584281e+00,-7.431068155624405591e+00,-1.378773285903828416e+01,-2.804867286585633668e+00,2.031100245839543916e+01,2.603102817073773068e+01,2.199381401180345819e+01,2.192584399032868614e+00
5.566666670000000039e-01,3.932998581263545734e+00,-7.213452348498965883e+00,-1.403123011764133032e+01,-3.629016939931685837e+00,1.944073791587282329e+01,2.622458349079560236e+01,2.362129296782042331e+01,3.806301534775111683e+00
5.583333340000000700e-01,4.202720325934995671e+00,-6.983842911264583009e+00,-1.425066109574940931e+01,-4.461432633995168651e+00,1.851258454801213560e+01,2.633837663258909600e+01,2.524819157016116478e+01,5.504239086982563478e+00
5.600000010000000250e-01,4.463122548907910492e+00,-6.743081572018494008e+00,-1.444520929586692048e+01,-5.300093581964301137e+00,1.753011743150568336e+01,2.637046405840106189e+01,2.686570956075393823e+01,7.283823516297589507e+00
5.616666670000000083e-01,4.714216578883502429e+00,-6.491982286701390770e+00,-1.461418609767088128e+01,-6.142969004912154141e+00,1.649710340843098777e+01,2.631972016602145459e+01,2.846442655053789039e+01,9.141128428136347850e+00
5.633333339999999634e-01,4.956021155625040642e+00,-6.231337380119267522e+00,-1.475700432311826660e+01,-6.988020291112834848e+00,1.541740077828327671e+01,2.618577812334519450e+01,3.003437324802769481e+01,1.107076731536042402e+01
5.650000010000000294e-01,5.188471914599254831e+00,-5.961827281956187718e+00,-1.487314508297096260e+01,-7.833246991212082122e+00,1.429488505223236494e+01,2.596900634669464480e+01,3.156523186110691981e+01,1.306573138590420768e+01
5.666666670000000128e-01,5.411384111039787115e+00,-5.684049956509467094e+00,-1.496212297185862461e+01,-8.676692932049897777e+00,1.313345017790734737e+01,2.567052025025218143e+01,3.304645446192974845e+01,1.511746179898317877e+01
5.683333340000000788e-01,5.624367003446681501e+00,-5.398579058769635175e+00,-1.502347007244088495e+01,-9.516362642231404934e+00,1.193692434756152210e+01,2.529219421554850200e+01,3.446738294394398139e+01,1.721575419235050219e+01
5.700000010000000339e-01,5.826723963974185239e+00,-5.105985340255883465e+00,-1.505673608973595812e+01,-1.035021526188365648e+01,1.070898916406773438e+01,2.483660793927366583e+01,3.581751834615022290e+01,1.934882994906928388e+01
5.716666670000000172e-01,6.017358442478593084e+00,-4.806780325666789366e+00,-1.506149844049694764e+01,-1.117616459295070364e+01,9.453260482655343466e+00,2.430698190826726446e+01,3.708656643901902328e+01,2.150333087599726767e+01
5.733333339999999723e-01,6.194754300565278982e+00,-4.501375509654646834e+00,-1.503734961027008232e+01,-1.199201747683469677e+01,8.173239872404305828e+00,2.370708235043859347e+01,3.826469032006551174e+01,2.366446194187237495e+01
5.750000010000000383e-01,6.357169211560554700e+00,-4.190106823656473800e+00,-1.498389497259493197e+01,-1.279550706105486313e+01,6.872236375021048893e+00,2.304105963970688364e+01,3.934273331998611667e+01,2.581635651772348794e+01
5.766666670000000217e-01,6.502756971791888496e+00,-3.873283202540298564e+00,-1.490074249061581035e+01,-1.358427263140689689e+01,5.553364003223832057e+00,2.231339310525966724e+01,4.031237451207000788e+01,2.794221061450850385e+01
5.783333339999999767e-01,6.630017962757783323e+00,-3.551192456686421028e+00,-1.478749928682742443e+01,-1.435582156606331594e+01,4.219567180261535100e+00,2.152880072610690121e+01,4.116628694496302643e+01,3.002465947233612198e+01
5.800000010000000428e-01,6.737861752416135275e+00,-3.224065132768499264e+00,-1.464378241982057460e+01,-1.510758578619189940e+01,2.873670749697257332e+00,2.069212391402508189e+01,4.189835842234126773e+01,3.204603503223716388e+01
5.816666670000000261e-01,6.825540743306424574e+00,-2.892103729697265369e+00,-1.446924311999704749e+01,-1.583691622714162683e+01,1.518345166295638871e+00,1.980817287842873142e+01,4.250394267325518882e+01,3.398880703249113822e+01
5.833333339999999811e-01,6.892618588391738577e+00,-2.555456451365013759e+00,-1.426359322725092227e+01,-1.654105308975976385e+01,1.561567666811005672e-01,1.888159703986622162e+01,4.297981657426953461e+01,3.583602797781043847e+01
5.850000010000000472e-01,6.938946097665981583e+00,-2.214216161506355807e+00,-1.402659730560211671e+01,-1.721714482394956747e+01,-1.210412375201877389e+00,1.791680111364606987e+01,4.332398902236705140e+01,3.757183589086159969e+01
5.866666670000000305e-01,6.964636672812764218e+00,-1.868464790836406264e+00,-1.375805443757382562e+01,-1.786230943887887790e+01,-2.578965943481431822e+00,1.691789663619135808e+01,4.353575475139030715e+01,3.918176620763032503e+01
5.883333339999999856e-01,6.970048607823311926e+00,-1.518307707064221912e+00,-1.345779476151407472e+01,-1.847365946006139481e+01,-3.947229608275256485e+00,1.588862295399687596e+01,4.361554638158124675e+01,4.065300543374846853e+01
5.900000010000000517e-01,6.955776210918870106e+00,-1.163913577253604670e+00,-1.312572177048371991e+01,-1.904827232627174993e+01,-5.312969240328198950e+00,1.483233985649757614e+01,4.356476170465452213e+01,4.197471851432055701e+01
5.916666670000000350e-01,6.922652065696088819e+00,-8.054127775411212831e-01,-1.276187737859835103e+01,-1.958325587600259965e+01,-6.673850384721005113e+00,1.375204779445784276e+01,4.338565348774664443e+01,4.313820170317350744e+01
5.933333339999999900e-01,6.871756597294377045e+00,-4.429044455906112066e-01,-1.236643206099180148e+01,-2.007583027177088653e+01,-8.027458413076182353e+00,1.265031349995418886e+01,4.308126779093780101e+01,4.413714866154241889e+01
5.950000010000000561e-01,6.804437210943623526e+00,-7.645481322966837801e-02,-1.193974149929545270e+01,-2.052334650078683964e+01,-9.371262388416040423e+00,1.152937889835304652e+01,4.265539672373833469e+01,4.496774957378070781e+01
5.966666670000000394e-01,6.722282855271383362e+00,2.938616333581049456e-01,-1.148235099714450413e+01,-2.092328218330151302e+01,-1.070261388348742670e+01,1.039122707686851221e+01,4.211255669722200423e+01,4.562846669173105596e+01
5.983333339999999945e-01,6.626910181036959280e+00,6.679596897734948469e-01,-1.099496149358684249e+01,-2.127320914222555004e+01,-1.201875157401640060e+01,9.237601815441774278e+00,4.145791757146874801e+01,4.611988536987890086e+01
6.000000010000000605e-01,6.519835902846963016e+00,1.045672465627127234e+00,-1.047840532397711044e+01,-2.157081341571624478e+01,-1.331677263386009180e+01,8.070037009877180978e+00,4.069702049557061230e+01,4.644442399281757616e+01
6.016666670000000439e-01,6.402574591326109399e+00,1.426808150659227614e+00,-9.933645707380549084e+00,-2.181397692763355423e+01,-1.459368313372797132e+01,6.889813417309421872e+00,3.983570928512624221e+01,4.660606173299601096e+01
6.033333339999999989e-01,6.276538807311325741e+00,1.811174844197759093e+00,-9.361783388689628893e+00,-2.200087554052205974e+01,-1.584631679457314313e+01,5.698074176787454981e+00,3.887997206589123067e+01,4.661014165037066448e+01
6.050000010000000650e-01,6.142897399016707283e+00,2.198529485220018120e+00,-8.764133671473498310e+00,-2.213001309385355597e+01,-1.707116055272803479e+01,4.495919166482487128e+00,3.783561031733947289e+01,4.646321492506759654e+01
6.066666670000000483e-01,6.002564057536463160e+00,2.588482454171259661e+00,-8.142211275441988860e+00,-2.220020742038327910e+01,-1.826439144409105353e+01,3.284467122202809009e+00,3.670808383304677847e+01,4.617277462193448656e+01
6.083333340000000033e-01,5.856240885826090370e+00,2.980516836606397213e+00,-7.497693613204014618e+00,-2.221054812126256905e+01,-1.942206973110504009e+01,2.064907467039557964e+00,3.550262840857303104e+01,4.574683724746104474e+01
6.100000010000000694e-01,5.704447833203049711e+00,3.373990099279776445e+00,-6.832394739801197048e+00,-2.216039476718609791e+01,-2.054014974762742796e+01,8.385704443867590951e-01,3.422421156514828056e+01,4.519359259007627116e+01
6.116666670000000527e-01,5.547635043140786593e+00,3.768170375814627882e+00,-6.148266007838592451e+00,-2.204936988305045986e+01,-2.161448748589340596e+01,-3.930488040031486774e-01,3.287752196618605183e+01,4.452118819274735273e+01
6.133333340000000078e-01,5.386272435694435146e+00,4.162205023925537262e+00,-5.447367930177763995e+00,-2.187736857044748717e+01,-2.264099947928682610e+01,-1.628574608134672141e+00,3.146661789556387134e+01,4.373767673474547735e+01
6.150000010000000739e-01,5.220882468957443123e+00,4.555120698817638925e+00,-4.731837074489823713e+00,-2.164459705261698730e+01,-2.361555672219355984e+01,-2.866822441162615753e+00,2.999508629526348713e+01,4.285072143725213323e+01
6.166666670000000572e-01,5.051901140485761665e+00,4.945845580474481196e+00,-4.003890433215201661e+00,-2.135162916141186429e+01,-2.453398269814081090e+01,-4.106648309585019696e+00,2.846605706915887524e+01,4.186736988960288386e+01
6.183333340000000122e-01,4.879525006814310117e+00,5.333254049948481068e+00,-3.265713697593159548e+00,-2.099945419157004167e+01,-2.539221506407893614e+01,-5.346583606405101108e+00,2.688215295955869522e+01,4.079398483592031965e+01
6.200000009999999673e-01,4.703745066008173659e+00,5.716211383984512118e+00,-2.519425560234435757e+00,-2.058952065867089942e+01,-2.618629325058728696e+01,-6.584731699944866179e+00,2.524549492198401168e+01,3.963626580203815308e+01
6.216666670000000616e-01,4.524394588485348478e+00,6.093569361643065285e+00,-1.767061177256126214e+00,-2.012366910329533809e+01,-2.691249156513061180e+01,-7.818747107831300447e+00,2.355791956515944818e+01,3.839932040442003114e+01
6.233333340000000167e-01,4.341116389653257635e+00,6.464138296104081860e+00,-1.010609299404695571e+00,-1.960407459516020623e+01,-2.756743059555304498e+01,-9.045836021150151396e+00,2.182122375456467367e+01,3.708753261836430681e+01
6.250000010000000827e-01,4.153444709931568113e+00,6.826680866164544170e+00,-2.520828614240716026e-01,-1.903320456618361689e+01,-2.814809510964752093e+01,-1.026276963291582511e+01,2.003725487099684344e+01,3.570474697350143600e+01
6.266666670000000661e-01,3.960893872121054926e+00,7.179881224021276154e+00,5.064581537561100300e-01,-1.841382886405116182e+01,-2.865184506269410392e+01,-1.146586613986381131e+01,1.820805765561733125e+01,3.425434380388725231e+01
6.283333340000000211e-01,3.763030331460429867e+00,7.522428467781042016e+00,1.262966816635923140e+00,-1.774902920545834206e+01,-2.907647009422785445e+01,-1.265102499750427612e+01,1.633601907109895635e+01,3.273941212342149498e+01
6.300000009999999762e-01,3.559585222424213047e+00,7.853124010442351199e+00,2.015368610874485267e+00,-1.704212598296619774e+01,-2.942025432169099020e+01,-1.381380798514285679e+01,1.442390122381977768e+01,3.116284185043226529e+01
6.316666669999999595e-01,3.350549732459784824e+00,8.170837293362641418e+00,2.761590208537018754e+00,-1.629668641712208910e+01,-2.968202755943390869e+01,-1.494941171012893655e+01,1.247491184115244600e+01,2.952737715658923889e+01
6.333333340000000256e-01,3.136170890289720958e+00,8.474459959251444019e+00,3.499549940153400929e+00,-1.551644750851229126e+01,-2.986117727751040363e+01,-1.605269032664977047e+01,1.049274563330608068e+01,2.783552867986585611e+01
6.350000009999999806e-01,2.916726016710625036e+00,8.762889576737523001e+00,4.227178904448436469e+00,-1.470525782787405866e+01,-2.995764064476943389e+01,-1.711830146082787252e+01,8.481587815848410372e+00,2.608981623092815028e+01
6.366666670000000749e-01,2.692501351064871873e+00,9.035040991939389698e+00,4.942471814460692947e+00,-1.386705263371007923e+01,-2.997187459870781723e+01,-1.814080650322687305e+01,6.446120124320420253e+00,2.429302401644728349e+01
6.383333340000000300e-01,2.463851718261366397e+00,9.289780596774782850e+00,5.643506695733117695e+00,-1.300577575545480080e+01,-2.990484954621095071e+01,-1.911481216945864148e+01,4.391477194896246772e+00,2.244828359797100248e+01
6.400000009999999850e-01,2.231172605379099227e+00,9.525927970480077889e+00,6.328419307287908246e+00,-1.212529941738829109e+01,-2.975808124019964396e+01,-2.003508936502129956e+01,2.323237112471139731e+00,2.055906406322754520e+01
6.416666669999999684e-01,1.994970511475236519e+00,9.742329695483640251e+00,6.995454552282552640e+00,-1.122937164550441658e+01,-2.953368019562498858e+01,-2.089668486493899024e+01,2.474261175717324956e-01,1.862922265050838178e+01
6.433333340000000344e-01,1.755878717218461116e+00,9.937930352785414811e+00,7.642931030956474636e+00,-1.032155342678247756e+01,-2.923433369843586860e+01,-2.169505261673279861e+01,-1.829493925099082041e+00,1.666297027271200193e+01
6.450000009999999895e-01,1.514375877965768780e+00,1.011174964949694477e+01,8.269190365019806421e+00,-9.405243089904267606e+00,-2.886321210947995297e+01,-2.242612829669299046e+01,-3.900593648146467363e+00,1.466496531092977484e+01
6.466666670000000838e-01,1.270731078032590000e+00,1.026287511603245406e+01,8.872571830664904624e+00,-8.483646225795270723e+00,-2.842387287156002174e+01,-2.308647203370090750e+01,-5.958475500144994719e+00,1.264039386257141473e+01
6.483333340000000389e-01,1.025100492249737094e+00,1.039043078583173951e+01,9.451443730264884380e+00,-7.559709422223687803e+00,-2.792020213987196797e+01,-2.367339409398196537e+01,-7.995277765353875132e+00,1.059496832805098521e+01
6.500000009999999939e-01,7.776232542977550288e-01,1.049357978761848287e+01,1.000425897671549258e+01,-6.636140937755049762e+00,-2.735638967598510263e+01,-2.418494622564035978e+01,-1.000280170425873827e+01,8.534956531699336324e+00
6.516666669999999773e-01,5.284513053513180125e-01,1.057158362192660839e+01,1.052961854846643064e+01,-5.715469347912305764e+00,-2.673693145581699326e+01,-2.461989727538884409e+01,-1.197257579235695424e+01,6.467301601534820144e+00
6.533333340000000433e-01,2.778370097911175285e-01,1.062382560291712075e+01,1.102624014341840208e+01,-4.800062120643390884e+00,-2.606652009461666353e+01,-2.497776117413472718e+01,-1.389593674800472023e+01,4.399536180383316619e+00
6.550000009999999984e-01,2.619853448534870122e-02,1.064980467789705010e+01,1.149294457435434325e+01,-3.892145168900123853e+00,-2.534993415891355184e+01,-2.525875574810973490e+01,-1.576429240505648188e+01,2.339771199149843550e+00
6.566666669999999817e-01,-2.258653942662136038e-01,1.064914554260913349e+01,1.192865247082342073e+01,-2.993751617529956555e+00,-2.459194088912849807e+01,-2.546380072917552795e+01,-1.756923509775430858e+01,2.965906011430239353e-01
6.583333340000000478e-01,-4.775378446630449414e-01,1.062160481230607800e+01,1.233247561451035246e+01,-2.106695206560650568e+00,-2.379732252689379024e+01,-2.559446108881768112e+01,-1.930269999961879535e+01,-1.721176045710675284e+00
6.600000010000000028e-01,-7.277202558866970872e-01,1.056706790210878566e+01,1.270374209674144694e+01,-1.232572286504070469e+00,-2.297080334055086936e+01,-2.565289847796216449e+01,-2.095708240105344089e+01,-3.704368110622554333e+00
6.616666669999999861e-01,-9.751413946306004554e-01,1.048555263826508011e+01,1.304196852908339643e+01,-3.727532599658172630e-01,-2.211691336393202789e+01,-2.564185835796926582e+01,-2.252548771598468136e+01,-5.643821423630448919e+00
6.633333340000000522e-01,-1.218635305168011218e+00,1.037722969916601734e+01,1.334690803423296401e+01,4.716285903325169171e-01,-2.123995703581633165e+01,-2.556466488201585818e+01,-2.400190034262123007e+01,-7.530672411163012114e+00
6.650000010000000072e-01,-1.457563209018559292e+00,1.024241043621398539e+01,1.361849620361911484e+01,1.299637235074508901e+00,-2.034400067211831242e+01,-2.542514352280786483e+01,-2.538121879655454549e+01,-9.356520793000440150e+00
6.666666669999999906e-01,-1.691823429703448900e+00,1.008158439776706672e+01,1.385687444524820755e+01,2.110522814235189504e+00,-1.943284841626895698e+01,-2.522752020752908209e+01,-2.665930997182060125e+01,-1.111360680313314120e+01
6.683333340000000566e-01,-1.921759192456523602e+00,9.895449399865995588e+00,1.406239531951506372e+01,2.903690384889649145e+00,-1.851001772360770303e+01,-2.497628377316983617e+01,-2.783310327550704599e+01,-1.279498110657056742e+01
6.700000010000000117e-01,-2.148050739223316352e+00,9.684945882003557216e+00,1.423556950185701986e+01,3.678586526035103166e+00,-1.757868835310171107e+01,-2.467599026019317776e+01,-2.890074095166710677e+01,-1.439447378800603516e+01
6.716666669999999950e-01,-2.371605174554647366e+00,9.451202342504336329e+00,1.437703174411647389e+01,4.434736317431315911e+00,-1.664164882364527287e+01,-2.433116567256753626e+01,-2.986158315010817788e+01,-1.590673953421716647e+01
6.733333340000000611e-01,-2.593447942643921422e+00,9.195452471886342849e+00,1.448750369131897919e+01,5.171755869332385736e+00,-1.570128072823646548e+01,-2.394625222928865682e+01,-3.071610403979852322e+01,-1.732740636143749313e+01
6.750000010000000161e-01,-2.814614365715135236e+00,8.919000063175055004e+00,1.456776867688469501e+01,5.889304867907794616e+00,-1.475955653338188611e+01,-2.352548773093509027e+01,-3.146587074811583662e+01,-1.865316388312881202e+01
6.766666669999999995e-01,-3.036025243521557115e+00,8.623207496495178148e+00,1.461864886826131382e+01,6.587114225418084779e+00,-1.381802957783918195e+01,-2.307285995610130414e+01,-3.211347764895432988e+01,-1.988172451868712542e+01
6.783333339999999545e-01,-3.258308950637457180e+00,8.309399997035896490e+00,1.464098430995869826e+01,7.264967132244700920e+00,-1.287793560744535348e+01,-2.259207424743301473e+01,-3.266233364827510144e+01,-2.101185654594445040e+01
6.800000010000000206e-01,-3.481676066415959614e+00,7.978821971784648248e+00,1.463563419522867548e+01,7.922690156044798648e+00,-1.194020657977173272e+01,-2.208644248681799738e+01,-3.311648464171390316e+01,-2.204345625971668454e+01
6.816666670000000039e-01,-3.705774657148371176e+00,7.632679744037369929e+00,1.460347582576508074e+01,8.560120717574216442e+00,-1.100549201282712986e+01,-2.155885386622773225e+01,-3.348044715239749536e+01,-2.297756293121986459e+01
6.833333340000000700e-01,-3.929468894528623579e+00,7.272119689620018868e+00,1.454535433542083389e+01,9.177116986275242638e+00,-1.007418576939377886e+01,-2.101176593382790614e+01,-3.375907201014467773e+01,-2.381627462533103312e+01
6.850000010000000250e-01,-4.150887682118688637e+00,6.898302886793643118e+00,1.446208493506022386e+01,9.773547650082321070e+00,-9.146515332817838129e+00,-2.044720667395260350e+01,-3.395743004181767333e+01,-2.456275176405711846e+01
6.866666670000000083e-01,-4.367687487328545615e+00,6.512393399308789022e+00,1.435448857077139451e+01,1.034925477783800929e+01,-8.222639583080155745e+00,-1.986679691183886831e+01,-3.408066310754593786e+01,-2.522103327428719410e+01
6.883333339999999634e-01,-4.577630750840780749e+00,6.115599799787754698e+00,1.422339792987894747e+01,1.090402186002917340e+01,-7.302743093253520890e+00,-1.927180379052497372e+01,-3.413384738522371009e+01,-2.579579639235879895e+01
6.900000010000000294e-01,-4.778641220383342159e+00,5.709129559848758362e+00,1.406965289499108351e+01,1.143754837850899619e+01,-6.387067177767762338e+00,-1.866322472498323748e+01,-3.412193154957751773e+01,-2.629210611059347613e+01
6.916666670000000128e-01,-4.968717546453177647e+00,5.294266479037636586e+00,1.389410938018577824e+01,1.194940878282221419e+01,-5.475921655439606184e+00,-1.804184237457505446e+01,-3.404967664335848809e+01,-2.671519627900655891e+01
6.933333340000000788e-01,-5.145927429431623956e+00,4.872342770262716449e+00,1.369765898758711486e+01,1.243905398435235554e+01,-4.569736294478952132e+00,-1.740827490939529909e+01,-3.392150067160035576e+01,-2.707029166803001630e+01
6.950000010000000339e-01,-5.308511235210868762e+00,4.444798130219659527e+00,1.348118953127835873e+01,1.290582630449417145e+01,-3.669035560807071050e+00,-1.676303546594530758e+01,-3.374147686691024717e+01,-2.736247836118830179e+01
6.966666670000000172e-01,-5.455019786619661915e+00,4.013121381213384353e+00,1.324553811754446464e+01,1.334899367838919737e+01,-2.774446791395227763e+00,-1.610657699919677910e+01,-3.351325653306718522e+01,-2.759659158734687168e+01
6.983333339999999723e-01,-5.584292956957640719e+00,3.578755967972147012e+00,1.299152082365231031e+01,1.376780467415680498e+01,-1.886707159329615635e+00,-1.543936741329513396e+01,-3.324004496825897093e+01,-2.777713084069756277e+01
7.000000010000000383e-01,-5.695417817084821976e+00,3.143187239821861656e+00,1.271993450454117891e+01,1.416148993246794596e+01,-1.006665582128730918e+00,-1.476191525096420065e+01,-3.292465061296697826e+01,-2.790821379615549702e+01
7.016666670000000217e-01,-5.787644757704626386e+00,2.707951465838448701e+00,1.243153694018710809e+01,1.452927314483983068e+01,-1.352479977714505788e-01,-1.407475009471864347e+01,-3.256955610872669382e+01,-2.799354347691706479e+01
7.033333340000000877e-01,-5.860362631630383845e+00,2.274554747623664497e+00,1.212707026997895632e+01,1.487038513609640411e+01,7.265231274185488530e-01,-1.337841026124655031e+01,-3.217693071291239448e+01,-2.803639834855200164e+01
7.050000010000000428e-01,-5.913051688944608308e+00,1.844490037234482793e+00,1.180728108235301299e+01,1.518403820114726877e+01,1.577547974107395667e+00,-1.267343325195804304e+01,-3.174872790572307224e+01,-2.803965788002462389e+01
7.066666670000000261e-01,-5.945215594007396298e+00,1.419290679934925414e+00,1.147295083214519273e+01,1.546947974991187813e+01,2.416621643643174888e+00,-1.196043358168942738e+01,-3.128669325329362749e+01,-2.800583378852781635e+01
7.083333339999999811e-01,-5.956451100915987951e+00,1.000318572778753135e+00,1.112487582040796674e+01,1.572601269799296730e+01,3.242444616640852484e+00,-1.124010966836159930e+01,-3.079234858495514970e+01,-2.793710949718119352e+01
7.100000010000000472e-01,-5.946709611771864523e+00,5.887893243366454366e-01,1.076388064727205673e+01,1.595297158629390033e+01,4.053672506441509782e+00,-1.051320113878827378e+01,-3.026706478515221832e+01,-2.783537565737669794e+01
7.116666670000000305e-01,-5.916369099822721189e+00,1.857892975497996702e-01,1.039081993830471440e+01,1.614977760876546142e+01,4.848909240121738407e+00,-9.780515016862596056e+00,-2.971214502830111925e+01,-2.770227577782146255e+01
7.133333339999999856e-01,-5.866274826249618712e+00,-2.077635707391726760e-01,1.000655729209311318e+01,1.631594715868840950e+01,5.626698200625593671e+00,-9.042904894914034486e+00,-2.912877695708845138e+01,-2.753929148594290055e+01
7.150000010000000517e-01,-5.797708920123351817e+00,-5.910740744239102451e-01,9.612020919983899958e+00,1.645108208962963658e+01,6.385534803079401023e+00,-8.301238606116596586e+00,-2.851805741649142689e+01,-2.734782005023234319e+01
7.166666670000000350e-01,-5.712313350909312248e+00,-9.633713870575628668e-01,9.208221396240571011e+00,1.655494243298994306e+01,7.123894440586932220e+00,-7.556446804427499053e+00,-2.788106107841013070e+01,-2.712916301491988946e+01
7.183333339999999900e-01,-5.611869589987139584e+00,-1.323860651043717418e+00,8.796265955568239647e+00,1.662744424977218216e+01,7.840291239806097323e+00,-6.809507676039105561e+00,-2.721883862739739612e+01,-2.688454779106207226e+01
7.200000010000000561e-01,-5.498641591962035058e+00,-1.671857563224388610e+00,8.377327465378682447e+00,1.666864727316739447e+01,8.533283324053446250e+00,-6.061447442605311764e+00,-2.653239865271856956e+01,-2.661521182532212748e+01
7.216666670000000394e-01,-5.375739226426712314e+00,-2.006908282889686035e+00,7.952534152097305409e+00,1.667875128115045058e+01,9.201564108063550407e+00,-5.313300598671362174e+00,-2.582274441703529178e+01,-2.632241165624991552e+01
7.233333339999999945e-01,-5.247083564237188469e+00,-2.328724110753827681e+00,7.522924763830761030e+00,1.665809323593174085e+01,9.844050363623878752e+00,-4.566122805805549412e+00,-2.509095824724875712e+01,-2.600734888746831786e+01
7.250000010000000605e-01,-5.116752706676456874e+00,-2.637130972612872437e+00,7.089565571799797183e+00,1.660715580680408721e+01,1.045985903094483938e+01,-3.820999782239744125e+00,-2.433819886102917707e+01,-2.567118571514613379e+01
